!!!!SEGMENT: pl-wn--mus-iii-65-947-cim--027_sowinski-wojciech--swiety-wojciech-meczennik-no-25-lowy-chor.krn
!!!cenid: 18xx:3620
!!!COM: Sowiński, Wojciech
!!!COM-rismID: pe30008543
!!!CDT: ~1803-1880/03/05
!!!CNT:
!!!GTL: Święty Wojciech męczennik
!!!OTL: No. 25. Łowy. Chór
!!!OMV: 027
!!!PDT: 1877
!!!AGN:
!!!SMS-siglum: PL-Wn
!!!SMS-shelfmark: Mus.III.65.947 Cim.
!!!SMS-shelfwork: 001-027 G
!!!SMS-variant:
!!!SMS-altvar:
!!!NIFC-rismSourceID:
!!!NIFC-rismChildID:
!!!NIFC-islandoraID: none
!!!URL-pdf-islandora:
!!!URL-scan: https://polona.pl/item/swiety-wojciech-meczennik-oratorjo-w-trzech-czesciach-dzielo-66-spiew-z-fortepianem,MTkzODI1Mzc/242/#item @EN{Scan on Polona} @PL{Skany w portalu Polona}
!!!IIIF: https://polona.pl/iiif/item/MTkzODI1Mzc/manifest.json
!!!ONB-nifc: UWAGA: oratorium zawiera w źródle 28 numerów podzielonych na 30 plików (rozdzielenie w No. 6 - osobno Recitativo oraz Aria matki i No. 10 - osobno Recitativo, arja i chór oraz Sen). Polecam widok miniatur na Polonie. Uwaga co do obsady: prosimy umieszczać tylko partie występujące w danym numerze (nie całą obsadę oratorium)
!!!AIN: 2 bass 1 piano 2 tenor
!!!key: g
**kern	**dynam	**kern	**dynam	**kern	**text	**dynam	**kern	**text	**dynam	**kern	**text	**dynam	**kern	**text	**dynam
*part5	*part5	*part5	*part5	*part4	*part4	*part4	*part3	*part3	*part3	*part2	*part2	*part2	*part1	*part1	*part1
*staff6	*staff6	*staff5	*	*staff4	*staff4	*	*staff3	*staff3	*	*staff2	*staff2	*	*staff1	*staff1	*
*IGacmp	*	*	*	*IGcoro	*	*	*IGcoro	*	*	*IGcoro	*	*	*IGcoro	*	*
*ICklav	*	*	*	*ICvox	*	*	*ICvox	*	*	*ICvox	*	*	*ICvox	*	*
*Ipiano	*	*	*	*Ibass	*	*	*Ibass	*	*	*Itenor	*	*	*Itenor	*	*
*I"PIANO.	*	*	*	*I"2. BAS.	*	*	*I"1. BAS.	*	*	*I"2. TENOR.	*	*	*I"1. TENOR.	*	*
*clefF4	*	*clefG2	*	*clefF4	*	*	*clefG2	*	*	*clefG2	*	*	*clefG2	*	*
*	*	*	*	*	*	*	*ITrd8c12	*	*	*ITrd8c12	*	*	*ITrd8c12	*	*
*k[b-e-]	*	*k[b-e-]	*	*k[b-e-]	*	*	*k[b-e-]	*	*	*k[b-e-]	*	*	*k[b-e-]	*	*
*g:	*	*g:	*	*g:	*	*	*g:	*	*	*g:	*	*	*g:	*	*
*M3/4	*	*M3/4	*	*M3/4	*	*	*M3/4	*	*	*M3/4	*	*	*M3/4	*	*
=1	=1	=1	=1	=1	=1	=1	=1	=1	=1	=1	=1	=1	=1	=1	=1
*xywh-195:110,131,2086,863	*	*	*	*	*	*	*	*	*	*	*	*	*	*	*
*	*	*xywh-195:110,131,2086,863	*	*	*	*	*	*	*	*	*	*	*	*	*
!	!	!LO:TX:t=Allo. risoluto.:Bi:rj	!	!	!	!	!	!	!	!	!	!	!	!	!
2GG\ 2G	.	2d/ 2g 2b-	f	2.ryy	.	.	2.ryy	.	.	2.ryy	.	.	2.ryy	.	.
4GG\ 4G	.	4d/ 4g 4b- 4dd	.	.	.	.	.	.	.	.	.	.	.	.	.
=2	=2	=2	=2	=2	=2	=2	=2	=2	=2	=2	=2	=2	=2	=2	=2
*	*	*^	*	*	*	*	*	*	*	*	*	*	*	*	*
*xywh-195:110,131,2086,863	*	*	*	*	*	*	*	*	*	*	*	*	*	*	*	*
*	*	*xywh-195:110,131,2086,863	*	*	*	*	*	*	*	*	*	*	*	*	*	*
*	*	*	*xywh-195:110,131,2086,863	*	*	*	*	*	*	*	*	*	*	*	*	*
4GG\ 4G	.	8cc#X/L	4g\ 4b-	<	2.ryy	.	.	2.ryy	.	.	2.ryy	.	.	2.ryy	.	.
.	.	8dd/	.	.	.	.	.	.	.	.	.	.	.	.	.	.
4GG\ 4G	.	8ee-/	4g\ 4b-	.	.	.	.	.	.	.	.	.	.	.	.	.
.	.	8dd/	.	.	.	.	.	.	.	.	.	.	.	.	.	.
4GG\ 4G	.	8cc#/	4g\ 4b-	.	.	.	.	.	.	.	.	.	.	.	.	.
.	.	8dd/J	.	[[	.	.	.	.	.	.	.	.	.	.	.	.
*	*	*v	*v	*	*	*	*	*	*	*	*	*	*	*	*	*
=3	=3	=3	=3	=3	=3	=3	=3	=3	=3	=3	=3	=3	=3	=3	=3
2GG\ 2G	.	2g\ 2b- 2gg	sf	2.ryy	.	.	2.ryy	.	.	2.ryy	.	.	2.ryy	.	.
4GG\ 4G	.	4b-\ 4dd	.	.	.	.	.	.	.	.	.	.	.	.	.
=4	=4	=4	=4	=4	=4	=4	=4	=4	=4	=4	=4	=4	=4	=4	=4
*^	*	*	*	*	*	*	*	*	*	*	*	*	*	*	*
*xywh-195:110,131,2086,863	*	*	*	*	*	*	*	*	*	*	*	*	*	*	*	*
*	*xywh-195:110,131,2086,863	*	*	*	*	*	*	*	*	*	*	*	*	*	*	*
*	*	*	*xywh-195:110,131,2086,863	*	*	*	*	*	*	*	*	*	*	*	*	*
4D/	2D\	.	4a\ 4cc	.	2.ryy	.	.	2.ryy	.	.	2.ryy	.	.	2.ryy	.	.
.	.	.	8qdd/	.	.	.	.	.	.	.	.	.	.	.	.	.
4A/ 4c	.	.	8a/L 8cc	.	.	.	.	.	.	.	.	.	.	.	.	.
.	.	.	8g/J 8b-	.	.	.	.	.	.	.	.	.	.	.	.	.
4A/ 4c	4ryy	.	4f#X^/ 4a	.	.	.	.	.	.	.	.	.	.	.	.	.
*v	*v	*	*	*	*	*	*	*	*	*	*	*	*	*	*	*
=5	=5	=5	=5	=5	=5	=5	=5	=5	=5	=5	=5	=5	=5	=5	=5
4G/	.	2g/ 2b-	<	2.ryy	.	.	2.ryy	.	.	2.ryy	.	.	2.ryy	.	.
8D/L	.	.	.	.	.	.	.	.	.	.	.	.	.	.	.
8BB-/J	.	.	.	.	.	.	.	.	.	.	.	.	.	.	.
4GG/	.	4b-/ 4dd	[[	.	.	.	.	.	.	.	.	.	.	.	.
=6	=6	=6	=6	=6	=6	=6	=6	=6	=6	=6	=6	=6	=6	=6	=6
4DD/	.	4a/ 4cc	f	2.ryy	.	.	2.ryy	.	.	2.ryy	.	.	2.ryy	.	.
.	.	8qdd/	.	.	.	.	.	.	.	.	.	.	.	.	.
4D\ 4A 4c	.	8a/L 8cc	.	.	.	.	.	.	.	.	.	.	.	.	.
.	.	8g/J 8b-	.	.	.	.	.	.	.	.	.	.	.	.	.
4D\ 4A 4c	.	4f#X^/ 4a	.	.	.	.	.	.	.	.	.	.	.	.	.
=7	=7	=7	=7	=7	=7	=7	=7	=7	=7	=7	=7	=7	=7	=7	=7
4G\	.	4g^/	.	2.ryy	.	.	2.ryy	.	.	2.ryy	.	.	2.ryy	.	.
8F\L	.	8fn/L	.	.	.	.	.	.	.	.	.	.	.	.	.
8E-\J	.	8e-/J	.	.	.	.	.	.	.	.	.	.	.	.	.
4D^\	.	4d^/	.	.	.	.	.	.	.	.	.	.	.	.	.
=8	=8	=8	=8	=8	=8	=8	=8	=8	=8	=8	=8	=8	=8	=8	=8
!!linebreak:original
*xywh-195:119,1591,2053,461	*	*	*	*	*	*	*	*	*	*	*	*	*	*	*
*	*	*xywh-195:119,1591,2053,461	*	*	*	*	*	*	*	*	*	*	*	*	*
*	*	*	*	*xywh-195:161,1441,1999,215	*	*	*	*	*	*	*	*	*	*	*
*	*	*	*	*	*	*	*xywh-195:152,1270,2005,239	*	*	*	*	*	*	*	*
*	*	*	*	*	*	*	*	*	*	*xywh-195:122,1112,2017,236	*	*	*	*	*
*	*	*	*	*	*	*	*	*	*	*	*	*	*xywh-195:164,944,1996,236	*	*
!	!	!	!	!LO:TX:t=2.BAS.:i	!	!	!LO:TX:t=1. BAS.:i	!	!	!LO:TX:t=2.TENOR.:i	!	!	!LO:TX:t=1. TENOR.:i	!	!
2G\	.	2g/	.	4r	.	.	4r	.	.	4r	.	.	4r	.	.
.	.	.	.	4r	.	.	4r	.	.	4r	.	.	4r	.	.
!	!	!	!	!	!	!LO:DY:rj:a	!	!	!LO:DY:rj:a	!	!	!LO:DY:rj:a	!	!	!LO:DY:rj:a
4GG\ 4G	.	4g/	.	4E-\	Da-	f	4G/	Da-	f	4G/	Da-	f	4G/	Da-	f
=9	=9	=9	=9	=9	=9	=9	=9	=9	=9	=9	=9	=9	=9	=9	=9
2GG\ 2G	.	2d/ 2g 2b-	.	2G\	-léj,	.	2G/	-léj,	.	2B-\	-léj,	.	2d\	-léj,	.
4GG\ 4G	.	4d^/ 4b- 4dd	.	8G\	przy	.	8G/	przy	.	8B-\	przy	.	8d\	przy	.
.	.	.	.	8G\	od-	.	8G/	od-	.	8B-\	od-	.	8d\	od-	.
=10	=10	=10	=10	=10	=10	=10	=10	=10	=10	=10	=10	=10	=10	=10	=10
*	*	*^	*	*	*	*	*	*	*	*	*	*	*	*	*
*xywh-195:119,1591,2053,461	*	*	*	*	*	*	*	*	*	*	*	*	*	*	*	*
*	*	*xywh-195:119,1591,2053,461	*	*	*	*	*	*	*	*	*	*	*	*	*	*
*	*	*	*xywh-195:119,1591,2053,461	*	*	*	*	*	*	*	*	*	*	*	*	*
4GG\ 4G	.	8cc#X/L	4g\ 4b-	.	2G\	-gło-	.	2G/	-gło-	.	2B-\	-gło-	.	2d\	-gło-	.
.	.	8dd/	.	.	.	.	.	.	.	.	.	.	.	.	.	.
4GG\ 4G	.	8ee-/	4g\ 4b-	<	.	.	.	.	.	.	.	.	.	.	.	.
.	.	8dd/	.	.	.	.	.	.	.	.	.	.	.	.	.	.
4GG\ 4G	.	8cc#/	4g\ 4b-	.	4G\	-sie	.	4G/	-sie	.	4B-\	-sie	.	4d\	-sie	.
.	.	8dd/J	.	[[	.	.	.	.	.	.	.	.	.	.	.	.
*	*	*v	*v	*	*	*	*	*	*	*	*	*	*	*	*	*
=11	=11	=11	=11	=11	=11	=11	=11	=11	=11	=11	=11	=11	=11	=11	=11
2GG\ 2G	.	2g\ 2b- 2gg	sf	2G\	trąb,	.	2G/	trąb,	.	2B-\	trąb,	.	2g\	trąb,	.
4GG\ 4G	.	4b-\ 4dd	.	8G\	przy	.	8G/	przy	.	8B-\	przy	.	8d\	przez	.
.	.	.	.	8G\	od-	.	8G/	od-	.	8B-\	od-	.	8d\	pa-	.
=12	=12	=12	=12	=12	=12	=12	=12	=12	=12	=12	=12	=12	=12	=12	=12
4DD/ 4D	.	4a\ 4cc	f	2D/	-gło-	.	(4F#X/	-gło-	.	(4A\	-gło-	.	4d\	-ro-	.
.	.	8qdd/	.	.	.	.	.	.	.	.	.	.	.	.	.
4D\ 4A 4c	.	8a/L 8cc	.	.	.	.	8A/L	.	.	8c\L	.	.	4d\	-wy	.
.	.	8g/J 8b-	.	.	.	.	8G/J)	.	.	8B-\J)	.	.	.	.	.
4D\ 4A 4c	.	4f#X/ 4a	.	4D/	-sie	.	4F#/	-sie	.	4A\	-sie	.	8A/	przez	.
.	.	.	.	.	.	.	.	.	.	.	.	.	8A/	pa-	.
=13	=13	=13	=13	=13	=13	=13	=13	=13	=13	=13	=13	=13	=13	=13	=13
4GG\ 4G	.	2g/ 2b-	.	2GG/	trąb,	.	2G/	trąb,	.	2G/	trąb,	.	2B-\	-ro-	.
4G\ 4B- 4d	.	.	.	.	.	.	.	.	.	.	.	.	.	.	.
4G\ 4B- 4d	.	4b-/ 4dd	.	4r	.	.	4r	.	.	8B-\	przez	.	4d\	-wy	.
.	.	.	.	.	.	.	.	.	.	8B-\	pa-	.	.	.	.
=14	=14	=14	=14	=14	=14	=14	=14	=14	=14	=14	=14	=14	=14	=14	=14
!!linebreak:original
*xywh-195:131,2718,2086,479	*	*	*	*	*	*	*	*	*	*	*	*	*	*	*
*	*	*xywh-195:131,2718,2086,479	*	*	*	*	*	*	*	*	*	*	*	*	*
*	*	*	*	*xywh-195:185,2529,1978,224	*	*	*	*	*	*	*	*	*	*	*
*	*	*	*	*	*	*	*xywh-195:161,2379,2008,200	*	*	*	*	*	*	*	*
*	*	*	*	*	*	*	*	*	*	*xywh-195:203,2220,1909,185	*	*	*	*	*
*	*	*	*	*	*	*	*	*	*	*	*	*	*xywh-195:194,2040,1909,215	*	*
.	.	8qdd/	.	.	.	.	.	.	.	.	.	.	.	.	.
!	!	!	!	!	!	!	!	!	!	!	!	!	!LO:TX:t=P:problem=brak odpowiedniego znaku unicode	!	!
4DD/ 4D	.	4a/ 4cc	.	4D/	-przez	.	4F#X/	przez	.	4A^/	-ro-	.	(4c^\	bło-	.
!	!	!	!	!LO:TX:t=P:problem=brak odpowiedniego znaku unicode	!	!	!	!LO:TX:t=P:problem=brak odpowiedniego znaku unicode	!	!	!	!	!	!	!
4D\ 4A 4c	.	8a/L 8cc	.	4D/	bło-	.	8F#/L	bło-	.	8A/L	-wy	.	8c\L	.	.
.	.	8g/J 8b-	.	.	.	.	8G/J	.	.	8G/J	.	.	8B-\J)	.	.
!	!	!	!	!	!	!	!	!	!	!LO:TX:t=P:problem=brak odpowiedniego znaku unicode	!	!	!	!	!
4D\ 4A 4c	.	4f#X/ 4a	.	4D/	-nia	.	4A/	-nia	.	8F#X/	-bło-	.	4A\	-nia	.
.	.	.	.	.	.	.	.	.	.	8F#/	-nia	.	.	.	.
=15	=15	=15	=15	=15	=15	=15	=15	=15	=15	=15	=15	=15	=15	=15	=15
!	!	!	!	!	!	!LO:DY:rj:a	!	!	!LO:DY:rj:a	!	!	!	!	!	!
4GG\ 4G	.	4g/	.	4G\	las	f	4G/	las	f	2G/	las	.	2G/	las	.
8Fn\L	.	8fnX/L	.	8F\	bło-	.	8Fn/	bło-	.	.	.	.	.	.	.
8E-\J	.	8e-/J	.	8E-\	-nia	.	8E-/	-nia	.	.	.	.	.	.	.
4D^\	.	4d/	.	4D^\	las	.	4D^>/	las	.	4r	.	.	4r	.	.
=16	=16	=16	=16	=16	=16	=16	=16	=16	=16	=16	=16	=16	=16	=16	=16
2G\	.	2g/	.	2G\	przez	.	2G/	przez	.	4r	.	.	4r	.	.
.	.	.	.	.	.	.	.	.	.	4r	.	.	4r	.	.
!	!	!	!	!	!	!LO:DY:rj:a	!	!	!LO:DY:rj:a	!	!	!LO:DY:rj:a	!	!	!LO:DY:rj:a
8AA\L 8A	.	8a\L 8cc#X 8een	f	8A\	bło-	f	8A/	bło-	f	8c#X\	bło-	f	8e\	bło-	f
8AA\J 8A	.	8a\J 8cc# 8ee	.	8A\	-nia	.	8A/	-nia	.	8c#\	-nia	.	8e\	-nia	.
=17	=17	=17	=17	=17	=17	=17	=17	=17	=17	=17	=17	=17	=17	=17	=17
!	!	!	!	!	!	!	!	!	!	!	!	!	!LO:SIC:v:s=2en;\	!	!
2AA;/ 2A	.	2a;\ 2cc#X 2een	.	2A;\	las	.	2A;/	las	.	2c#X;\	las	.	2e-;\	las	.
!	!	!	!	!	!	!LO:DY:rj:a	!	!	!LO:DY:rj:a	!	!	!LO:DY:rj:a	!	!	!LO:DY:rj:a
8DD/L 8D	.	8a\L 8dd 8ff#X	ff	8D\	przy	ff	8A/	przy	ff	8d\	przy	ff	8f#X\	przy	ff
8DD/J 8D	.	8a\J 8dd 8ff#	.	8D\	od-	.	8A/	od-	.	8d\	od-	.	8f#\	od-	.
=18	=18	=18	=18	=18	=18	=18	=18	=18	=18	=18	=18	=18	=18	=18	=18
[2.DD/ [2.D	.	2.a\ [2.dd 2.ff#X	.	2D\	-gło-	.	2A/	-gło-	.	2d\	-gło-	.	2f#X\	-gło-	.
.	.	.	.	4D\	-sie	.	4F#X/	-sie	.	4d\	-sie	.	4d\	-sie	.
=19	=19	=19	=19	=19	=19	=19	=19	=19	=19	=19	=19	=19	=19	=19	=19
!	!	!	!	!	!	!	!	!	!	!	!	!	!LO:SIC:v:s=2f#;\	!	!
2DD;/] 2D]	.	2f#X;\ 2dd]	.	2D;\	trąb!	.	2A;/	trąb!	.	2d;\	trąb!	.	2f;\	trąb!	.
!	!	!	!	!	!LO:MO:mod=Tur	!	!	!LO:MO:mod=Tur	!	!	!LO:MO:mod=Tur	!	!	!LO:MO:mod=Tur	!
4G\	.	4g/	.	8G\	Tur-	.	8G/	Tur-	.	8G/	Tur-	.	8G/	Tur-	.
!	!	!	!	!	!LO:MO:mod=nie	!	!	!LO:MO:mod=nie	!	!	!LO:MO:mod=nie	!	!	!LO:MO:mod=nie	!
.	.	.	.	8G\	-nie	.	8G/	-nie	.	8G/	-nie	.	8G/	-nie	.
=20	=20	=20	=20	=20	=20	=20	=20	=20	=20	=20	=20	=20	=20	=20	=20
2GG/ 2D 2G	.	2d/ 2g 2b-	.	2G\	przem-	.	2G/	przem-	.	2G/	przem-	.	2d\	przem-	.
4GG/ 4D 4G	.	4d/ 4b- 4dd	.	4G\	-knie	.	4G/	-knie	.	4B-\	-knie	.	4d\	-knie	.
=21	=21	=21	=21	=21	=21	=21	=21	=21	=21	=21	=21	=21	=21	=21	=21
!!pagebreak:original
*	*	*^	*	*	*	*	*	*	*	*	*	*	*	*	*
*xywh-196:452,779,1966,446	*	*	*	*	*	*	*	*	*	*	*	*	*	*	*	*
*	*	*xywh-196:452,779,1966,446	*	*	*	*	*	*	*	*	*	*	*	*	*	*
*	*	*	*xywh-196:452,779,1966,446	*	*	*	*	*	*	*	*	*	*	*	*	*
*	*	*	*	*	*xywh-196:467,626,1951,257	*	*	*	*	*	*	*	*	*	*	*
*	*	*	*	*	*	*	*	*xywh-196:497,474,1954,260	*	*	*	*	*	*	*	*
*	*	*	*	*	*	*	*	*	*	*	*xywh-196:485,336,1945,233	*	*	*	*	*
*	*	*	*	*	*	*	*	*	*	*	*	*	*	*xywh-196:476,135,1957,275	*	*
4GG\ 4D 4G	.	8cc#X/L	4f^\ 4b-	.	(4G\	za	.	2G/	za	.	2B-\	za	.	2d\	za	.
.	.	8dd/	.	.	.	.	.	.	.	.	.	.	.	.	.	.
4GG\ 4D 4G	.	8ee-/	4g^\ 4b-	.	4D\)	.	.	.	.	.	.	.	.	.	.	.
.	.	8dd/	.	.	.	.	.	.	.	.	.	.	.	.	.	.
4GG\ 4D 4G	.	8cc#/	4g^\ 4b-	.	4BB-/	ten	.	4G/	ten	.	4B-\	ten	.	4d\	ten	.
.	.	8dd/J	.	.	.	.	.	.	.	.	.	.	.	.	.	.
*	*	*v	*v	*	*	*	*	*	*	*	*	*	*	*	*	*
=22	=22	=22	=22	=22	=22	=22	=22	=22	=22	=22	=22	=22	=22	=22	=22
!	!	!	!LO:DY:rj	!	!	!	!	!	!	!	!	!	!	!	!
2GG\ 2D 2G	.	2g^<\ 2b- 2gg	sf	2GG/	zrąb,	.	2G/	zrąb,	.	2B-\	zrąb,	.	2g\	zrąb,	.
4GG\ 4G	.	8b-\L 8dd	<	8GG/	da-	.	8G/	da-	.	8B-\	da-	.	8d\	da-	.
.	.	8b-\J 8ee-	[[	8GG/	-léj	.	8G/	-léj	.	8B-\	-léj	.	8e-\	-léj	.
=23	=23	=23	=23	=23	=23	=23	=23	=23	=23	=23	=23	=23	=23	=23	=23
4FF/ 4F	.	4a\ 4ff	sf	2F^\	wgłąb	.	2F^>/	wgłąb	.	4A^\	wgłąb	.	4f^\	wgłąb	.
4F\ 4c 4e-	.	8cc\L 8ee-	.	.	.	.	.	.	.	8c\L	za	.	8e-\L	za	.
.	.	8b-\J 8dd	.	.	.	.	.	.	.	8B-\J	.	.	8d\J	.	.
4F\ 4c 4e-	.	4a\ 4cc	.	8F\	za	.	8F/	za	.	4A\	ten	.	4c\	ten	.
.	.	.	.	8F\	ten	.	8F/	ten	.	.	.	.	.	.	.
=24	=24	=24	=24	=24	=24	=24	=24	=24	=24	=24	=24	=24	=24	=24	=24
2BB-\ 2B-	.	2b-\ 2dd	.	2BB-/	zrąb!	.	2F/	zrąb!	.	2B-\	zrąb!	.	2d\	zrąb!	.
!	!	!	!	!LO:TX:t=P:problem=brak odpowiedniego znaku unicode	!	!	!LO:TX:t=P:problem=brak odpowiedniego znaku unicode	!	!	!LO:TX:t=P:problem=brak odpowiedniego znaku unicode	!	!	!LO:TX:t=P:problem=brak odpowiedniego znaku unicode	!	!
(8D\L	.	4f\ 4b- 4ff	<	8D\	Ła-	.	8F/	Ła-	.	8B-\	Ła-	.	8f\	Ła-	.
8E-\J)	.	.	[	8E-\	-nia	.	8F/	-nia	.	8B-\	-nia	.	8f\	-nia	.
=25	=25	=25	=25	=25	=25	=25	=25	=25	=25	=25	=25	=25	=25	=25	=25
2F\	.	4f^\ 4a 4ff	sf	2F\	wpław	.	2F/	wpław	.	4A\	wpław	.	4f\	wpław	.
.	.	8cc^\L 8ee-	.	.	.	.	.	.	.	(8c\L	nie	.	(8e-\L	nie	.
.	.	8b-\J 8dd	.	.	.	.	.	.	.	8B-\J)	.	.	8d\J)	.	.
4FF/ 4F	.	4a\ 4cc	.	4F\	ła-	.	4F/	ła-	.	8A/	zmy-	.	8c\	zmy-	.
.	.	.	.	.	.	.	.	.	.	8A/	-li	.	8c\	-li	.
=26	=26	=26	=26	=26	=26	=26	=26	=26	=26	=26	=26	=26	=26	=26	=26
4BB-^\ 4B-	.	4b-^/	.	4B-\	-nia	.	2BB-/	-nia	.	4B-/	nas	.	2B-\	nas	.
8A^\L	.	8a^/L	.	(8A\L	nie-	.	.	.	.	(8A/L	nie-	.	.	.	.
8G^\J	.	8g^/J	.	8G\J)	.	.	.	.	.	8G/J)	.	.	.	.	.
4F^\	.	4f^/	.	8F\	-zmy-	.	4r	.	.	8F/	-zmy-	.	4r	.	.
.	.	.	.	8F\	-li	.	.	.	.	8G/	-li	.	.	.	.
=27	=27	=27	=27	=27	=27	=27	=27	=27	=27	=27	=27	=27	=27	=27	=27
!!linebreak:original
*xywh-196:419,1783,1990,431	*	*	*	*	*	*	*	*	*	*	*	*	*	*	*
*	*	*xywh-196:419,1783,1990,431	*	*	*	*	*	*	*	*	*	*	*	*	*
*	*	*	*	*xywh-196:440,1630,1993,248	*	*	*	*	*	*	*	*	*	*	*
*	*	*	*	*	*	*	*xywh-196:446,1477,1966,242	*	*	*	*	*	*	*	*
*	*	*	*	*	*	*	*	*	*	*xywh-196:458,1318,1951,245	*	*	*	*	*
*	*	*	*	*	*	*	*	*	*	*	*	*	*xywh-196:443,1135,1978,263	*	*
!	!	!	!	!	!	!	!	!	!	!LO:N:vis=2	!	!	!	!	!
2B-\	.	2b-/	f	2B-\	nas	.	4r	.	.	4B-\	nas	.	4r	.	.
.	.	.	.	.	.	.	4r	.	.	4r	.	.	4r	.	.
!	!	!	!LO:DY:rj	!	!	!LO:DY:rj:a	!	!	!LO:DY:rj:a	!	!	!LO:DY:rj:a	!	!	!LO:DY:rj:a
8F\L 8c	.	8f/L 8a	f	8F\	ła-	f	8A/	ła-	f	8c\	ła-	f	8f\	ła-	f
8F\J 8c	.	8a/J 8cc	.	8F\	-nia	.	8A/	-nia	.	8c\	-nia	.	8f\	-nia	.
=28	=28	=28	=28	=28	=28	=28	=28	=28	=28	=28	=28	=28	=28	=28	=28
2F;\ 2c	.	2f;\ 2a 2ff	.	4.F;\	wpław	.	4.A;\	wpław	.	4.c;\	wpław	.	4.f;\	wpław	.
.	.	.	.	8BB-/	nie	.	8B-\	nie	.	8F/	nie	.	8B-\	nie	.
!	!	!	!LO:DY:rj	!	!	!	!	!	!	!	!	!	!	!	!
8BB-\L 8B-	.	8b-\L 8dd	f	8BB-/	zmy-	.	8B-\	zmy-	.	8d\	zmy-	.	8d\	zmy-	.
8BB-\J 8B-	.	8b-\J 8ff	.	8BB-/	-li	.	8B-\	-li	.	8d\	-li	.	8f\	-li	.
=29	=29	=29	=29	=29	=29	=29	=29	=29	=29	=29	=29	=29	=29	=29	=29
2BB-;<\ 2B-	.	2b-;<\ 2dd 2bb-	.	2BB-;/	nas!	.	2B-;\	nas!	.	2d;\	nas!	.	2b-;\	nas!	.
4r	.	4r	.	4r	.	.	4r	.	.	4r	.	.	4r	.	.
*clefG2	*	*	*	*	*	*	*	*	*	*	*	*	*	*	*
=30	=30	=30	=30	=30	=30	=30	=30	=30	=30	=30	=30	=30	=30	=30	=30
(2c/	.	(2cc\	p	2.r	.	.	2.r	.	.	2.r	.	.	2.r	.	.
4e-/	.	4ee-\	.	.	.	.	.	.	.	.	.	.	.	.	.
=31	=31	=31	=31	=31	=31	=31	=31	=31	=31	=31	=31	=31	=31	=31	=31
8c/L	.	8cc\L	.	2.r	.	.	2.r	.	.	2.r	.	.	2.r	.	.
8e-/	.	8ee-\	.	.	.	.	.	.	.	.	.	.	.	.	.
8c/	.	8cc\	.	.	.	.	.	.	.	.	.	.	.	.	.
8a/J)	.	8aa\J)	.	.	.	.	.	.	.	.	.	.	.	.	.
4g^/	.	4gg^\	.	.	.	.	.	.	.	.	.	.	.	.	.
=32	=32	=32	=32	=32	=32	=32	=32	=32	=32	=32	=32	=32	=32	=32	=32
2f#X/	.	2ff#X\	.	4r	.	.	4r	.	.	4r	.	.	4r	.	.
.	.	.	.	4r	.	.	4r	.	.	4r	.	.	4r	.	.
!	!	!	!LO:DY:rj	!	!	!LO:DY:rj:a	!	!	!LO:DY:rj:a	!	!	!LO:DY:rj:a	!	!	!LO:DY:rj:a
8A/L 8c 8e- 8f#	.	8a\L 8cc 8ee- 8ff#	f	8A\	ła-	f	8c\	ła-	f	8e-\	ła-	f	8f#X\	ła-	f
8A/J 8c 8e- 8f#	.	8a\J 8cc 8ee- 8ff#	.	8A\	-nia	.	8c\	-nia	.	8e-\	-nia	.	8f#\	-nia	.
=33	=33	=33	=33	=33	=33	=33	=33	=33	=33	=33	=33	=33	=33	=33	=33
2.A/ 2.c 2.e- 2.f#X	.	2.a\ 2.cc 2.ee- 2.ff#X	.	2.A^\	wpław	.	2.c^\	wpław	.	2.e-^\	wpław	.	2.f#X^\	wpław	.
=34	=34	=34	=34	=34	=34	=34	=34	=34	=34	=34	=34	=34	=34	=34	=34
!!linebreak:original
*xywh-196:419,2772,2014,449	*	*	*	*	*	*	*	*	*	*	*	*	*	*	*
*	*	*xywh-196:419,2772,2014,449	*	*	*	*	*	*	*	*	*	*	*	*	*
*	*	*	*	*xywh-196:422,2639,1993,218	*	*	*	*	*	*	*	*	*	*	*
*	*	*	*	*	*	*	*xywh-196:437,2466,1960,221	*	*	*	*	*	*	*	*
*	*	*	*	*	*	*	*	*	*	*xywh-196:449,2310,1972,236	*	*	*	*	*
*	*	*	*	*	*	*	*	*	*	*	*	*	*xywh-196:455,2148,1936,233	*	*
(2c/	.	(2cc\	p	2.r	.	.	2.r	.	.	2.r	.	.	2.r	.	.
4e-/	.	4ee-\	.	.	.	.	.	.	.	.	.	.	.	.	.
=35	=35	=35	=35	=35	=35	=35	=35	=35	=35	=35	=35	=35	=35	=35	=35
8c/L	.	8cc\L	.	2.r	.	.	2.r	.	.	2.r	.	.	2.r	.	.
8e-/	.	8ee-\	.	.	.	.	.	.	.	.	.	.	.	.	.
8c/	.	8cc\	.	.	.	.	.	.	.	.	.	.	.	.	.
8a/J)	.	8aa\J)	.	.	.	.	.	.	.	.	.	.	.	.	.
4g/	.	4gg\	.	.	.	.	.	.	.	.	.	.	.	.	.
=36	=36	=36	=36	=36	=36	=36	=36	=36	=36	=36	=36	=36	=36	=36	=36
2fn^/	.	2ffn^\	.	4r	.	.	4r	.	.	4r	.	.	4r	.	.
.	.	.	.	8r	.	.	8r	.	.	8r	.	.	8r	.	.
.	.	.	.	8A\	nie	.	8c\	nie	.	8c\	nie	.	8e\	nie	.
8A/L 8c 8e- 8f	.	8a\L 8cc 8ee- 8ff	.	8A\	zmy-	.	8c\	zmy-	.	8f\	zmy-	.	8f\	zmy-	.
8A/J 8c 8e- 8f	.	8a\J 8cc 8ee- 8ff	.	8A\	-li	.	8c\	-li	.	8f\	-li	.	8f\	-li	.
=37	=37	=37	=37	=37	=37	=37	=37	=37	=37	=37	=37	=37	=37	=37	=37
[2.A/ [2.c [2.e- [2.f	.	[2.a\ 2.cc 2.ee- [2.ff	.	[2.A\	nas	.	[2.c\	nas	.	[2.e-\	nas	.	[2.f\	nas	.
=38	=38	=38	=38	=38	=38	=38	=38	=38	=38	=38	=38	=38	=38	=38	=38
4A;/] 4c] 4e-] 4f]	.	4a;\] 4cc 4ee- 4ff]	.	4A;\]	.	.	4c;\]	.	.	4e-;\]	.	.	4f;\]	.	.
4r	.	4r	.	4r	.	.	4r	.	.	4r	.	.	4r	.	.
*clefF4	*	*	*	*	*	*	*	*	*	*	*	*	*	*	*
!	!	!	!LO:DY:rj	!	!	!	!	!	!	!	!	!LO:DY:rj:a	!	!	!LO:DY:rj:a
8BB-\L 8F 8B-	.	8d/L 8f	p	8BB-/	Tyl-	.	4r	.	.	8D/	Tyl-	p	8F/	Tyl-	p
8BB-\J 8F 8B-	.	8d/J 8f	.	8BB-/	-ko	.	.	.	.	8D/	-ko	.	8F/	-ko	.
=39	=39	=39	=39	=39	=39	=39	=39	=39	=39	=39	=39	=39	=39	=39	=39
2BB-\ 2F	.	2d/ 2f	.	2.BB-/	zbie-	.	2.r	.	.	2.D/	zbie-	.	2F/	zbie-	.
8BB-\L 8F 8B-	.	8d/L 8f	.	.	.	.	.	.	.	.	.	.	4F/	-głe	.
8BB-\J 8F 8B-	.	8d/J 8f	.	.	.	.	.	.	.	.	.	.	.	.	.
=40	=40	=40	=40	=40	=40	=40	=40	=40	=40	=40	=40	=40	=40	=40	=40
!!pagebreak:original
*^	*	*	*	*	*	*	*	*	*	*	*	*	*	*	*
*xywh-197:164,836,2030,417	*	*	*	*	*	*	*	*	*	*	*	*	*	*	*	*
*	*xywh-197:164,836,2030,417	*	*	*	*	*	*	*	*	*	*	*	*	*	*	*
*	*	*	*xywh-197:164,836,2030,417	*	*	*	*	*	*	*	*	*	*	*	*	*
*	*	*	*	*	*xywh-197:189,679,2005,207	*	*	*	*	*	*	*	*	*	*	*
*	*	*	*	*	*	*	*	*xywh-197:209,541,1975,192	*	*	*	*	*	*	*	*
*	*	*	*	*	*	*	*	*	*	*	*xywh-197:202,372,1978,207	*	*	*	*	*
*	*	*	*	*	*	*	*	*	*	*	*	*	*	*xywh-197:174,149,2013,282	*	*
4F/ 4B-	2BB-\	.	4d/ 4f	.	4BB-/	-głe	.	4r	.	.	4F/	-głe	.	(4F/	z	.
4F/	.	.	4d/ 4f 4dd	.	4BB-/	z brań-	.	4F/	z brań-	.	4F/	z brań-	.	4d\)	brań-	.
(<8G/L	4BB-\	.	4e-/ 4cc	.	4BB-/	-ców	.	(8F/L	-ców	.	(8G/L	-ców	.	4c\	-ców	.
8A/J	.	.	.	.	.	.	.	8E-/J)	.	.	8A/J)	.	.	.	.	.
=41	=41	=41	=41	=41	=41	=41	=41	=41	=41	=41	=41	=41	=41	=41	=41	=41
4B-/)	4BB-\	.	4d/ 4b-	.	2BB-/	chat	.	2D/	chat	.	2B-\	chat	.	2B-\	chat	.
4r	4ryy	.	4r	.	.	.	.	.	.	.	.	.	.	.	.	.
!	!	!	!	!	!	!	!LO:DY:rj:a	!	!	!LO:DY:rj:a	!	!	!LO:DY:rj:a	!	!	!
8B-\L 8d	4ryy	.	8dd/L 8ff	.	8B-\	z brań-	f	8d\	z brań-	f	8f\	z brań-	f	4r	.	.
8B-\J 8d	.	.	8f/J	.	8B-\	-ców	.	8d\	-ców	.	8f\	-ców	.	.	.	.
*v	*v	*	*	*	*	*	*	*	*	*	*	*	*	*	*	*
=42	=42	=42	=42	=42	=42	=42	=42	=42	=42	=42	=42	=42	=42	=42	=42
2B-\ 2d	.	2f/ 2dd 2ff	.	2B-\	chat	.	2d\	chat	.	2f\	chat	.	2.r	.	.
!	!	!	!LO:DY:rj	!	!	!LO:DY:rj:a	!	!	!LO:DY:rj:a	!	!	!LO:DY:rj:a	!	!	!
8BB-\L 8B-	.	8d/L 8f	p	8BB-/	dziew-	p	8D/	dziew-	p	8F/	dziew-	p	.	.	.
8BB-\J 8B-	.	8d/J 8f	.	8BB-/	-cze	.	8D/	-cze	.	8F/	-cze	.	.	.	.
=43	=43	=43	=43	=43	=43	=43	=43	=43	=43	=43	=43	=43	=43	=43	=43
2BB-\ 2B-	.	2d/ 2f	.	2BB-/	nam	.	2D/	nam	.	2F/	nam	.	2.r	.	.
8BB-\L 8B-	.	8d/L 8f	.	4BB-/	na-	.	4D/	na-	.	4F/	na-	.	.	.	.
8BB-\J 8B-	.	8d/J 8f	.	.	.	.	.	.	.	.	.	.	.	.	.
=44	=44	=44	=44	=44	=44	=44	=44	=44	=44	=44	=44	=44	=44	=44	=44
2BB-\ 2B-	.	[4d/ [4f	.	2BB-/	-psu-	.	2D/	-psu-	.	(4F/	-psu-	.	2.r	.	.
.	.	4d/] 4f] 4dd	.	.	.	.	.	.	.	4d\)	.	.	.	.	.
4AA\ 4A	.	8en/L 8cc	.	4AA/	-je	.	(8E/L	-je	.	4c\	-je	.	.	.	.
.	.	8f#X/J	.	.	.	.	8F#X/J)	.	.	.	.	.	.	.	.
=45	=45	=45	=45	=45	=45	=45	=45	=45	=45	=45	=45	=45	=45	=45	=45
2GG\ 2G	.	2g/ 2b-	.	2GG/	krwi	.	2G/	krwi	.	2d\	krwi	.	4r	.	.
.	.	.	.	.	.	.	.	.	.	.	.	.	4r	.	.
!	!	!	!LO:DY:rj	!	!	!LO:DY:rj:a	!	!	!	!	!	!	!	!	!LO:DY:rj:a
8G\L 8B- 8d	.	8g/L 8b-	f	8G\	z brań-	f	8B-/	z brań-	f	4r	.	.	8g\	z brań-	f
8G\J 8B- 8d	.	8g/J 8b- 8dd	.	8G\	-ców	.	8B-/	-ców	.	.	.	.	8g\	-ców	.
=46	=46	=46	=46	=46	=46	=46	=46	=46	=46	=46	=46	=46	=46	=46	=46
!!linebreak:original
*	*	*^	*	*	*	*	*	*	*	*	*	*	*	*	*
*xywh-197:184,1833,2008,392	*	*	*	*	*	*	*	*	*	*	*	*	*	*	*	*
*	*	*xywh-197:184,1833,2008,392	*	*	*	*	*	*	*	*	*	*	*	*	*	*
*	*	*	*xywh-197:184,1833,2008,392	*	*	*	*	*	*	*	*	*	*	*	*	*
*	*	*	*	*	*xywh-197:177,1660,1995,237	*	*	*	*	*	*	*	*	*	*	*
*	*	*	*	*	*	*	*	*xywh-197:194,1503,1973,224	*	*	*	*	*	*	*	*
*	*	*	*	*	*	*	*	*	*	*	*xywh-197:197,1370,1995,189	*	*	*	*	*
*	*	*	*	*	*	*	*	*	*	*	*	*	*	*xywh-197:204,1173,1990,242	*	*
2G\ 2B- 2d	.	2ryy	2g\ 2b- 2gg	.	2G\	chat!	.	2B-/	chat!	.	2.r	.	.	2g\	chat!	.
!	!	!	!	!	!	!	!LO:DY:rj:a	!	!	!LO:DY:rj:a	!	!	!	!	!	!LO:DY:rj:a
8A\L 8c	.	8ff/L	4a\ 4cc	.	8A\	zry-	f	8c\	zry-	f	.	.	.	8f\	zry-	f
8A\J 8c	.	8ee-/J	.	.	8A\	-wa	.	8c\	-wa	.	.	.	.	8e-\	-wa	.
*	*	*v	*v	*	*	*	*	*	*	*	*	*	*	*	*	*
=47	=47	=47	=47	=47	=47	=47	=47	=47	=47	=47	=47	=47	=47	=47	=47
2BB-\ 2B-	.	2f/ 2dd	.	4B-\	ser-	.	2B-/	ser-	.	2.r	.	.	2d\	ser-	.
.	.	.	.	4BB-/	-ce	.	.	.	.	.	.	.	.	.	.
!	!	!	!	!	!	!LO:DY:rj:a	!	!	!LO:DY:rj:a	!	!	!	!	!	!LO:DY:rj:a
8BB-\L 8F 8B-	.	8d/L 8f	.	8BB-/	ja-	p	4D/	-ce	p	.	.	.	4F/	-ce	p
8BB-\J 8F 8B-	.	8d/J 8f	.	8BB-/	-ko	.	.	.	.	.	.	.	.	.	.
=48	=48	=48	=48	=48	=48	=48	=48	=48	=48	=48	=48	=48	=48	=48	=48
*^	*	*	*	*	*	*	*	*	*	*	*	*	*	*	*
*xywh-197:184,1833,2008,392	*	*	*	*	*	*	*	*	*	*	*	*	*	*	*	*
*	*xywh-197:184,1833,2008,392	*	*	*	*	*	*	*	*	*	*	*	*	*	*	*
*	*	*	*xywh-197:184,1833,2008,392	*	*	*	*	*	*	*	*	*	*	*	*	*
4G/ 4B-	2BB-\	.	([4d/ [4f	.	4BB-/	kwiat	.	(4D/	a-	.	4r	.	.	(4F/	ja-	.
4F/	.	.	4d/] 4f] 4dd	.	4r	.	.	4F/)	.	.	4r	.	.	4d\)	.	.
8G/L	4BB-\	.	4e-/) 4cc	.	8BB-/	ja-	.	8r	.	.	8G/	ja-	.	4c\	-ko	.
8A/J	.	.	.	.	8BB-/	-ko-	.	8E-/	-ko	.	8A/	-ko	.	.	.	.
=49	=49	=49	=49	=49	=49	=49	=49	=49	=49	=49	=49	=49	=49	=49	=49	=49
4B-/	4BB-\	.	4d/ 4b-	.	4BB-/	-kwiat	.	4D/	kwiat	.	4B-/	kwiat	.	4A\	kwiat	.
4r	4ryy	.	4r	.	4r	.	.	4r	.	.	4r	.	.	4r	.	.
!	!	!	!	!LO:DY:rj	!	!	!LO:DY:rj:a	!	!	!LO:DY:rj:a	!	!	!LO:DY:rj:a	!	!	!
8B-\L 8d	8ryy	.	8dd/L 8ff	f	8B-\	ja-	f	8d\	ja-	f	8f\	ja-	f	4r	.	.
8B-\J 8d	8ryy	.	8f/J	.	8B-\	-ko	.	8d\	-ko	.	8f\	-ko	.	.	.	.
*v	*v	*	*	*	*	*	*	*	*	*	*	*	*	*	*	*
=50	=50	=50	=50	=50	=50	=50	=50	=50	=50	=50	=50	=50	=50	=50	=50
!	!	!LO:TX:b:t=ten.:i	!	!	!	!	!	!	!	!	!	!	!	!	!
2B-\ 2d	.	2f/ 2dd 2ff	.	2B-\	kwiat	.	2d\	kwiat	.	2f\	kwiat	.	2.r	.	.
!	!	!	!LO:DY:rj	!	!	!	!	!	!	!	!	!	!	!	!
8BB-\L 8B-	.	8d/L 8f	p	4r	.	.	4r	.	.	4r	.	.	.	.	.
8BB-\J 8B-	.	8d/J 8f	.	.	.	.	.	.	.	.	.	.	.	.	.
=51	=51	=51	=51	=51	=51	=51	=51	=51	=51	=51	=51	=51	=51	=51	=51
!	!	!	!	!	!	!LO:DY:rj:a	!	!	!LO:DY:rj:a	!	!	!	!	!	!LO:DY:rj:a
2BB-\ 2B-	.	2d/ 2f	.	2BB-/	I	p	2D/	I	p	2.r	.	.	2F/	I	p
.	.	.	.	.	.	<	.	.	<	.	.	.	.	.	<
8BB-\L 8B-	.	8d/L 8f	.	4BB-/	z po-	.	4D/	z po-	.	.	.	.	4F/	z po	.
8BB-\J 8B-	.	8d/J 8f	.	.	.	[[	.	.	[[	.	.	.	.	.	[[
=52	=52	=52	=52	=52	=52	=52	=52	=52	=52	=52	=52	=52	=52	=52	=52
!!linebreak:original
*xywh-197:132,2822,2033,439	*	*	*	*	*	*	*	*	*	*	*	*	*	*	*
*	*	*xywh-197:132,2822,2033,439	*	*	*	*	*	*	*	*	*	*	*	*	*
*	*	*	*	*xywh-197:199,2674,1960,202	*	*	*	*	*	*	*	*	*	*	*
*	*	*	*	*	*	*	*xywh-197:197,2519,1983,202	*	*	*	*	*	*	*	*
*	*	*	*	*	*	*	*	*	*	*xywh-197:197,2357,1973,202	*	*	*	*	*
*	*	*	*	*	*	*	*	*	*	*	*	*	*xywh-197:192,2175,1968,217	*	*
2GG\ 2G	.	4d/ 4f	.	4BBn/	-go-	.	4D/	-go-	.	2G/	I	.	4F/	go-	.
.	.	4ee-\	.	4GG/	-ni	.	4BB-/	-ni	.	.	.	.	4e-\	-ni	.
8AA/L	.	4f\ 4dd	.	8AA/	na-	.	8G/	na-	.	4G/	z po-	.	4d\	z po-	.
8BBn/J	.	.	.	8BBn/	-széj	.	8F/	-széj	.	.	.	.	.	.	.
=53	=53	=53	=53	=53	=53	=53	=53	=53	=53	=53	=53	=53	=53	=53	=53
2C\	.	2e-/ 2cc	.	2C/	drwi	.	2E-/	drwi	.	4G/	-go-	.	4c\	-go-	.
.	.	.	.	.	.	.	.	.	.	4G/	-ni	.	4c\	-ni	.
!	!	!	!LO:DY:rj	!	!	!LO:DY:rj:a	!	!	!LO:DY:rj:a	!	!	!LO:DY:rj:a	!	!	!LO:DY:rj:a
8C\L 8c	.	8g/L 8cc	f	8c\	na-	f	8c\	na-	f	8e-\	na-	f	8g\	na-	f
8C\J 8c	.	8g/J 8cc 8ee-	.	8c\	-széj	.	8c\	-széj	.	8e-\	-széj	.	8g\	-széj	.
=54	=54	=54	=54	=54	=54	=54	=54	=54	=54	=54	=54	=54	=54	=54	=54
2C\ 2c	.	2g\ 2cc 2ee- 2gg	.	2c\	drwi	.	2c\	drwi	.	2e-\	drwi	.	2g\	drwi	.
!	!	!	!LO:DY:rj	!	!	!	!	!	!	!	!	!	!	!	!
8C\L 8c	.	8e-/L 8g	p	8r	.	.	4r	.	.	4r	.	.	8r	.	.
!	!	!	!	!LO:N:vis=4	!	!	!	!	!	!	!	!	!	!	!
!	!	!	!	!	!LO:MO:mod=z po-	!	!	!	!	!	!	!	!	!	!
8C\J 8c	.	8e-/J 8g	.	8C/	zpo-	.	.	.	.	.	.	.	8G/	z po-	.
=55	=55	=55	=55	=55	=55	=55	=55	=55	=55	=55	=55	=55	=55	=55	=55
2C\ 2c	.	2e-/ 2g	.	2.C/	-go-	.	2.r	.	.	2E-/	I	.	2.G/	-go-	.
8C\L 8c	.	8e-/L 8g	.	.	.	.	.	.	.	4E-/	zpo-	.	.	.	.
8C\J 8c	.	8e-/J 8g	.	.	.	.	.	.	.	.	.	.	.	.	.
=56	=56	=56	=56	=56	=56	=56	=56	=56	=56	=56	=56	=56	=56	=56	=56
!	!	!	!	!LO:TX:a:t=rall.:i	!	!	!LO:TX:a:t=rall.:i	!	!	!LO:TX:a:t=rall.:i	!	!	!LO:TX:a:t=rall.:i	!	!
2C\ 2c	.	4e-/ 4g	.	4C\	-ni	.	4r	.	.	4E-/	-go-	.	4G/	-ni	.
!LO:TX:a:t=rall.:i	!	!	!	!	!	!	!	!	!	!	!	!	!	!	!
.	.	4e-/ 4a	.	4C\	na-	.	4r	.	.	4E-/	-ni	.	4A\	na-	.
!	!	!	!	!	!	!LO:DY:rj:a	!	!	!LO:DY:rj:a	!	!	!LO:DY:rj:a	!	!	!LO:DY:rj:a
4C\ 4c	.	8e-/L 8a	.	4C\	-széj	p	8E-/	na-	p	8A/	na-	p	4A\	-széj	p
.	.	8g/J	.	.	.	.	8E-/	-széj	.	8G/	-széj	.	.	.	.
=57	=57	=57	=57	=57	=57	=57	=57	=57	=57	=57	=57	=57	=57	=57	=57
2D;<\ 2A	.	2d;\ 2f#X 2dd	sf	2D;\	drwi!	.	2D;/	drwi!	.	2F#X;/	drwi!	.	2d;\	drwi!	.
!	!	!	!	!	!	!LO:DY:rj:a	!	!	!LO:DY:rj:a	!	!	!LO:DY:rj:a	!	!	!LO:DY:rj:a
4r	.	4g/	f	4G\	Da-	f	4G/	Da-	f	4G/	Da-	f	4G/	Da-	f
=58	=58	=58	=58	=58	=58	=58	=58	=58	=58	=58	=58	=58	=58	=58	=58
!LO:TX:a:t=a tempo.:i	!	!	!	!LO:TX:a:t=a tempo.:i	!	!	!LO:TX:a:t=a tempo.:i	!	!	!LO:TX:a:t=a tempo.:i	!	!	!LO:TX:a:t=a tempo&colon;	!	!
2GG\ 2G	.	2d/ 2g 2b-	.	2G\	-léj,	.	2G/	-léj,	.	2B-\	-léj,	.	2d\	-léj,	.
4GG\ 4G	.	4d/ 4b- 4dd	.	8G\	przy	.	8G/	przy	.	8B-\	przy	.	8d\	przy	.
.	.	.	.	8G\	od	.	8G/	od	.	8B-\	od	.	8d\	od-	.
=59	=59	=59	=59	=59	=59	=59	=59	=59	=59	=59	=59	=59	=59	=59	=59
!!pagebreak:original
*	*	*^	*	*	*	*	*	*	*	*	*	*	*	*	*
*xywh-198:432,802,1993,417	*	*	*	*	*	*	*	*	*	*	*	*	*	*	*	*
*	*	*xywh-198:432,802,1993,417	*	*	*	*	*	*	*	*	*	*	*	*	*	*
*	*	*	*xywh-198:432,802,1993,417	*	*	*	*	*	*	*	*	*	*	*	*	*
*	*	*	*	*	*xywh-198:432,637,1990,222	*	*	*	*	*	*	*	*	*	*	*
*	*	*	*	*	*	*	*	*xywh-198:452,492,1970,219	*	*	*	*	*	*	*	*
*	*	*	*	*	*	*	*	*	*	*	*xywh-198:460,340,1963,209	*	*	*	*	*
*	*	*	*	*	*	*	*	*	*	*	*	*	*	*xywh-198:402,118,2040,282	*	*
4GG\ 4G	.	8cc#X/L	4f\ 4b-	.	2G\	-gło-	.	2G/	-gło-	.	2B-\	-gło-	.	2d\	-gło-	.
.	.	8dd/	.	.	.	.	.	.	.	.	.	.	.	.	.	.
4GG\ 4G	.	8ee-/	4g\ 4b-	.	.	.	.	.	.	.	.	.	.	.	.	.
.	.	8dd/	.	.	.	.	.	.	.	.	.	.	.	.	.	.
4GG\ 4G	.	8cc#/	4g\ 4b-	.	4G\	-sie	.	4G/	-sie	.	4B-\	-sie	.	4d\	-sie	.
.	.	8dd/J	.	.	.	.	.	.	.	.	.	.	.	.	.	.
*	*	*v	*v	*	*	*	*	*	*	*	*	*	*	*	*	*
=60	=60	=60	=60	=60	=60	=60	=60	=60	=60	=60	=60	=60	=60	=60	=60
!	!	!	!LO:DY:rj	!	!	!LO:DY:rj:a	!	!	!LO:DY:rj:a	!	!	!LO:DY:rj:a	!	!	!LO:DY:rj:a
2GG\ 2G	.	2g\ 2b- 2gg	sf	2G^\	trąb,	f	2G^>/	trąb,	f	2B-^\	trąb,	f	2g^\	trąb,	f
4GG\ 4G	.	4b-\ 4dd	.	8G\	przy	.	8G/	przy	.	8B-\	przy	.	8d\	przez	.
.	.	.	.	8G\	od-	.	8G/	od-	.	8B-\	od-	.	8d\	pa-	.
=61	=61	=61	=61	=61	=61	=61	=61	=61	=61	=61	=61	=61	=61	=61	=61
4DD/ 4D	.	4a/ 4cc	sf	2D\	-gło-	.	4F#X/	-gło-	.	4A\	-gło-	.	4d\	-ro-	.
4D\ 4A 4c	.	8a/L 8cc	.	.	.	.	8A/L	.	.	8c\L	.	.	4d\	-wy	.
.	.	8g/J 8b-	.	.	.	.	8G/J	.	.	8B-\J	.	.	.	.	.
!	!	!	!	!	!	!	!	!	!	!LO:N:xstem	!	!	!	!	!
4D\ 4A 4c	.	4f#X^>/ 4a	.	4D\	-sie	.	4F#/	-sie	.	4A\	-sie	.	8A/	bło-	.
.	.	.	.	.	.	.	.	.	.	.	.	.	8A/	-nia	.
=62	=62	=62	=62	=62	=62	=62	=62	=62	=62	=62	=62	=62	=62	=62	=62
4GG\ 4G	.	2g/ 2b-	.	2GG/	trąb,	.	2G/	trąb,	.	2G/	trąb,	.	2B-\	las,	.
4G\ 4B- 4d	.	.	.	.	.	.	.	.	.	.	.	.	.	.	.
4G\ 4B- 4d	.	4b-/ 4dd	.	8GG/	przez	.	8G/	przez	.	8B-\	przez	.	8d\	przez	.
.	.	.	.	8GG/	pa-	.	8G/	pa-	.	8B-\	pa-	.	8d\	pa-	.
=63	=63	=63	=63	=63	=63	=63	=63	=63	=63	=63	=63	=63	=63	=63	=63
.	.	(<8qdd/	.	.	.	.	.	.	.	.	.	.	.	.	.
4DD/ 4D	.	4a/) 4cc	.	4D\	-ro-	.	4F#X/	-ro-	.	4A/	-ro-	.	4c\	-ro-	.
4D\ 4A 4c	.	8a/L 8cc	.	4D\	-wy	.	(8F#/L	-wy	.	(8A/L	-wy	.	(8c\L	-wy	.
.	.	8g/J 8b-	.	.	.	.	8G/J)	.	.	8G/J)	.	.	8B-\J)	.	.
4D\ 4A 4c	.	4f#X/ 4a	.	8D\	przez	.	8A/	przez	.	8F#X/	przez	.	8A/	bło-	.
.	.	.	.	8D\	pa-	.	8F#/	pa-	.	8F#/	pa-	.	8A/	-nia	.
=64	=64	=64	=64	=64	=64	=64	=64	=64	=64	=64	=64	=64	=64	=64	=64
4GG\ 4G	.	4g/	.	4G\	-ro-	.	4G/	-ro-	.	4G/	-ro-	.	2G/	las	.
8Fn\L	.	8fn/L	.	(8F\L	-wy	.	(8Fn/L	-wy	.	8Fn/L	-wy	.	.	.	.
8E-\J	.	8e-/J	.	8E-\J)	.	.	8E-/J)	.	.	8E-/J	.	.	.	.	.
4D\	.	4d/	.	8D\	bło-	.	8D/	bło-	.	8D/	bło-	.	4r	.	.
.	.	.	.	8D\	-nia	.	8D/	-nia	.	8D/	-nia	.	.	.	.
=65	=65	=65	=65	=65	=65	=65	=65	=65	=65	=65	=65	=65	=65	=65	=65
!!linebreak:original
*xywh-198:365,1808,2078,394	*	*	*	*	*	*	*	*	*	*	*	*	*	*	*
*	*	*xywh-198:365,1808,2078,394	*	*	*	*	*	*	*	*	*	*	*	*	*
*	*	*	*	*xywh-198:437,1651,1983,229	*	*	*	*	*	*	*	*	*	*	*
*	*	*	*	*	*	*	*xywh-198:457,1494,1945,229	*	*	*	*	*	*	*	*
*	*	*	*	*	*	*	*	*	*	*xywh-198:467,1322,1895,242	*	*	*	*	*
*	*	*	*	*	*	*	*	*	*	*	*	*	*xywh-198:485,1174,1938,219	*	*
2G\	.	2g/	.	2G\	las!	.	2G/	las!	.	2G/	las!	.	4r	.	.
.	.	.	.	.	.	.	.	.	.	.	.	.	4r	.	.
!	!	!	!	!	!LO:MO:mod=Tur	!	!	!LO:MO:mod=Tur	!	!	!LO:MO:mod=Tur	!	!	!LO:MO:mod=Tur	!
8G\L	.	8g/L	.	8G\	Tur-	.	8G/	Tur-	.	8G/	Tur-	.	8G/	Tur-	.
!	!	!	!	!	!LO:MO:mod=nie	!	!	!LO:MO:mod=nie	!	!	!LO:MO:mod=nie	!	!	!LO:MO:mod=nie	!
8G\J	.	8g/J	.	8G\	-nie	.	8G/	-nie	.	8G/	-nie	.	8G/	-nie	.
=66	=66	=66	=66	=66	=66	=66	=66	=66	=66	=66	=66	=66	=66	=66	=66
2GG\ 2D 2G	.	2d/ 2g 2b-	.	2G\	przem-	.	2G/	przem-	.	2B-\	przem-	.	2d\	przem-	.
4GG\ 4D 4G	.	4d/ 4b- 4dd	.	4G\	-knie	.	4G/	-knie	.	4B-\	-knie	.	4d\	-knie	.
=67	=67	=67	=67	=67	=67	=67	=67	=67	=67	=67	=67	=67	=67	=67	=67
*	*	*^	*	*	*	*	*	*	*	*	*	*	*	*	*
*xywh-198:365,1808,2078,394	*	*	*	*	*	*	*	*	*	*	*	*	*	*	*	*
*	*	*xywh-198:365,1808,2078,394	*	*	*	*	*	*	*	*	*	*	*	*	*	*
*	*	*	*xywh-198:365,1808,2078,394	*	*	*	*	*	*	*	*	*	*	*	*	*
4BB-^\ 4D 4G	.	8cc#X/L	4g\ 4b-	.	(4G\	za	.	2G/	za	.	(8A\L	za	.	(8c#X\L	za	.
.	.	8dd/	.	.	.	.	.	.	.	.	8B-\	.	.	8d\	.	.
!	!	!	!	!	!	!	!	!	!	!	!LO:SIC:v:s=8c#\	!	!	!	!	!
4BB-^\ 4D 4G	.	8cc#/	4g\ 4b-	.	4D\)	.	.	.	.	.	8c\	.	.	8e-\	.	.
.	.	8dd/	.	.	.	.	.	.	.	.	8B-\J)	.	.	8d\J)	.	.
4BB-^\ 4D 4G	.	8cc#/	4g\ 4b-	.	4BB-/	ten	.	4G/	ten	.	(8A\L	ten	.	(8c#\L	ten	.
.	.	8dd/J	.	.	.	.	.	.	.	.	8B-\J)	.	.	8d\J)	.	.
*	*	*v	*v	*	*	*	*	*	*	*	*	*	*	*	*	*
=68	=68	=68	=68	=68	=68	=68	=68	=68	=68	=68	=68	=68	=68	=68	=68
2BB-\ 2D 2G^	.	2g\ 2b- 2gg	.	2GG^>/	zrąb,	.	2G^>/	zrąb,	.	2B-^\	zrąb,	.	2g^\	zrąb,	.
4GG\ 4G	.	(8b-\L 8dd	.	8G\	ła-	.	8G/	ła-	.	8B-\	ła-	.	8d\	ła-	.
.	.	8b-\J) 8ee-	.	8G\	-nia	.	8G/	-nia	.	8B-\	-nia	.	8e-\	-nia	.
=69	=69	=69	=69	=69	=69	=69	=69	=69	=69	=69	=69	=69	=69	=69	=69
4FF\ 4F	.	4a\ 4ff	sf	2F\	wpław	.	2F/	wpław	.	2A\	wpław	.	4f\	wpław	.
4F\ 4c 4e-	.	8cc\L 8ee-	.	.	.	.	.	.	.	.	.	.	(8e-\L	nie-	.
.	.	8b-\J 8dd	.	.	.	.	.	.	.	.	.	.	8d\J)	.	.
4F\ 4c 4e-	.	4a\ 4cc	.	8F\	ła-	.	8F/	ła-	.	8A/	ła-	.	8c\	-zmy-	.
.	.	.	.	8F\	-nia	.	8F/	-nia	.	8A/	-nia	.	8c\	-li	.
=70	=70	=70	=70	=70	=70	=70	=70	=70	=70	=70	=70	=70	=70	=70	=70
2BB-\ 2B-	.	2b-\ 2dd	.	2BB-/	wpław	.	2F/	wpław	.	2B-\	wpław	.	2B-\	nas	.
(8D\L	.	4f\ 4b- 4ff	.	8D\	ła-	.	8F/	ła-	.	8B-\	ła-	.	8B-\	ła-	.
8E-\J)	.	.	.	8E-\	-nia	.	8F/	-nia	.	8B-\	-nia	.	8B-\	-nia	.
=71	=71	=71	=71	=71	=71	=71	=71	=71	=71	=71	=71	=71	=71	=71	=71
!!linebreak:original
*xywh-198:433,2793,2005,377	*	*	*	*	*	*	*	*	*	*	*	*	*	*	*
*	*	*xywh-198:433,2793,2005,377	*	*	*	*	*	*	*	*	*	*	*	*	*
*	*	*	*	*xywh-198:453,2648,1990,209	*	*	*	*	*	*	*	*	*	*	*
*	*	*	*	*	*	*	*xywh-198:476,2491,1900,212	*	*	*	*	*	*	*	*
*	*	*	*	*	*	*	*	*	*	*xywh-198:468,2328,1898,209	*	*	*	*	*
*	*	*	*	*	*	*	*	*	*	*	*	*	*xywh-198:468,2161,1950,229	*	*
2F\	.	4f^\ 4a 4ff	.	2F\	nie zmy-	.	2F/	nie zmy-	.	2A/	nie zmy-	.	4f\	wpław	.
.	.	8cc^\L 8ee-	.	.	.	.	.	.	.	.	.	.	8e-\L	nie	.
.	.	8b-^\J 8dd	.	.	.	.	.	.	.	.	.	.	8d\J	.	.
4FF/ 4F	.	4a^\ 4cc	.	4F\	-li	.	4F/	li	.	4A/	-li	.	8c\	zmy-	.
.	.	.	.	.	.	.	.	.	.	.	.	.	8c\	-li	.
=72	=72	=72	=72	=72	=72	=72	=72	=72	=72	=72	=72	=72	=72	=72	=72
4BB-^\ 4B-	.	4b-^\	.	2BB-/	nas	.	4B-\	nas	.	4B-/	nas	.	4B-\	nas	.
8A^\L	.	8a^/L	.	.	.	.	(8A/L	nie	.	(8A/L	nie	.	(8A/L	nie	.
8G^\J	.	8g^/J	.	.	.	.	8G/J)	.	.	8G/J)	.	.	8G/J)	.	.
4F^\	.	4f^/	.	8F\	zmy-	.	8F/	zmy-	.	8F/	zmy-	.	8F/	zmy-	.
.	.	.	.	8F\	-li	.	8F/	-li	.	8F/	-li	.	8F/	-li	.
=73	=73	=73	=73	=73	=73	=73	=73	=73	=73	=73	=73	=73	=73	=73	=73
2BB-\ 2B-	.	2d/ 2b-	.	2BB-/	nas!	.	2B-\	nas!	.	2B-\	nas!	.	2B-\	nas!	.
4D^\	.	4d/	.	4r	.	.	4r	.	.	4r	.	.	4r	.	.
=74	=74	=74	=74	=74	=74	=74	=74	=74	=74	=74	=74	=74	=74	=74	=74
8D\L	.	8d/L	.	2.r	.	.	2.r	.	.	2.r	.	.	2.r	.	.
8C#X\	.	8c#X/	.	.	.	.	.	.	.	.	.	.	.	.	.
8D\	.	8d/	.	.	.	.	.	.	.	.	.	.	.	.	.
8En\	.	8en/	.	.	.	.	.	.	.	.	.	.	.	.	.
8F#X\	.	8f#X/	.	.	.	.	.	.	.	.	.	.	.	.	.
8G\J	.	8g/J	.	.	.	.	.	.	.	.	.	.	.	.	.
=75	=75	=75	=75	=75	=75	=75	=75	=75	=75	=75	=75	=75	=75	=75	=75
8A\L	.	8a/L	.	2.r	.	.	2.r	.	.	2.r	.	.	2.r	.	.
8G\	.	8g/	.	.	.	.	.	.	.	.	.	.	.	.	.
8F#X\	.	8f#X/	.	.	.	.	.	.	.	.	.	.	.	.	.
8G\	.	8g/	.	.	.	.	.	.	.	.	.	.	.	.	.
8A\	.	8a/	.	.	.	.	.	.	.	.	.	.	.	.	.
8B-\J	.	8b-/J	.	.	.	.	.	.	.	.	.	.	.	.	.
=76	=76	=76	=76	=76	=76	=76	=76	=76	=76	=76	=76	=76	=76	=76	=76
2c^\	.	2cc^\	.	4r	.	.	4r	.	.	4r	.	.	4r	.	.
.	.	.	.	4r	.	.	4r	.	.	4r	.	.	4r	.	.
!	!	!	!	!	!	!LO:DY:rj:a	!	!	!LO:DY:rj:a	!	!	!LO:DY:rj:a	!	!	!LO:DY:rj:a
8A\L	.	8cc\L 8ee-X	.	8A\	da-	f	8A/	da-	f	8c\	da-	f	8e-\	da-	f
8G\J	.	8b-\J 8ee-	.	8G\	-léj	.	8G/	-léj	.	8B-\	-léj	.	8e-\	-léj	.
=77	=77	=77	=77	=77	=77	=77	=77	=77	=77	=77	=77	=77	=77	=77	=77
!	!	!	!	!	!	!	!LO:SIC:v:s=2F#/	!	!	!	!	!	!	!	!
2F#X\	.	2a\ 2dd	sf	2F#X\	wgłąb	.	2F/	wgłąb	.	2A/	wgłąb	.	2d\	wgłąb	.
4D^\	.	4d^/	.	4r	.	.	4r	.	.	4r	.	.	4r	.	.
=78	=78	=78	=78	=78	=78	=78	=78	=78	=78	=78	=78	=78	=78	=78	=78
!!pagebreak:original
*xywh-199:136,874,1948,404	*	*	*	*	*	*	*	*	*	*	*	*	*	*	*
*	*	*xywh-199:136,874,1948,404	*	*	*	*	*	*	*	*	*	*	*	*	*
*	*	*	*	*xywh-199:143,707,1975,212	*	*	*	*	*	*	*	*	*	*	*
*	*	*	*	*	*	*	*xywh-199:136,554,2043,219	*	*	*	*	*	*	*	*
*	*	*	*	*	*	*	*	*	*	*xywh-199:161,415,1950,197	*	*	*	*	*
*	*	*	*	*	*	*	*	*	*	*	*	*	*xywh-199:188,202,1983,257	*	*
8D\L	.	8d/L	.	2.r	.	.	2.r	.	.	2.r	.	.	2.r	.	.
8C#X\	.	8c#X/	.	.	.	.	.	.	.	.	.	.	.	.	.
8D\	.	8d/	.	.	.	.	.	.	.	.	.	.	.	.	.
8En\	.	8en/	.	.	.	.	.	.	.	.	.	.	.	.	.
8F#X\	.	8f#X/	.	.	.	.	.	.	.	.	.	.	.	.	.
8G\J	.	8g/J	.	.	.	.	.	.	.	.	.	.	.	.	.
=79	=79	=79	=79	=79	=79	=79	=79	=79	=79	=79	=79	=79	=79	=79	=79
8A\L	.	8a/L	<	2.r	.	.	2.r	.	.	2.r	.	.	2.r	.	.
8G\	.	8g/	.	.	.	.	.	.	.	.	.	.	.	.	.
8F#X\	.	8f#X/	.	.	.	.	.	.	.	.	.	.	.	.	.
8G\	.	8g/	.	.	.	.	.	.	.	.	.	.	.	.	.
8A\	.	8a/	.	.	.	.	.	.	.	.	.	.	.	.	.
8B-\J	.	8b-/J	[[	.	.	.	.	.	.	.	.	.	.	.	.
=80	=80	=80	=80	=80	=80	=80	=80	=80	=80	=80	=80	=80	=80	=80	=80
2c\	.	2cc\	.	4r	.	.	4r	.	.	4r	.	.	4r	.	.
.	.	.	.	4r	.	.	4r	.	.	4r	.	.	4r	.	.
!	!	!	!	!	!	!LO:DY:rj:a	!	!	!LO:DY:rj:a	!	!	!LO:DY:rj:a	!	!	!LO:DY:rj:a
4AA-X\ 4A-X	.	4e-\ 4a-X 4cc 4ee-X	.	8A-X\	za	f	8A-X/	za	f	8c\	za	f	8e-\	za	f
.	.	.	.	8A-\	ten	.	8A-/	ten	.	8c\	ten	.	8e-\	ten	.
=81	=81	=81	=81	=81	=81	=81	=81	=81	=81	=81	=81	=81	=81	=81	=81
4EE-/ 4E-	.	4e-\ 4g 4b- 4ee-	.	2E-\	zrąb	.	2G/	zrąb	.	2B-\	zrąb	.	2e-\	zrąb	.
4r	.	4r	.	.	.	.	.	.	.	.	.	.	.	.	.
4E-\	.	4e-^/	.	4r	.	.	4r	.	.	4r	.	.	4r	.	.
=82	=82	=82	=82	=82	=82	=82	=82	=82	=82	=82	=82	=82	=82	=82	=82
8E-\L	.	8e-/L	.	2.r	.	.	2.r	.	.	2.r	.	.	2.r	.	.
8Dn\	.	8dn/	.	.	.	.	.	.	.	.	.	.	.	.	.
8E-\	.	8e-/	<	.	.	.	.	.	.	.	.	.	.	.	.
8F\	.	8f/	.	.	.	.	.	.	.	.	.	.	.	.	.
8G\	.	8g/	.	.	.	.	.	.	.	.	.	.	.	.	.
8A-X\J	.	8a-X/	.	.	.	.	.	.	.	.	.	.	.	.	.
=83	=83	=83	=83	=83	=83	=83	=83	=83	=83	=83	=83	=83	=83	=83	=83
8B-\L	.	8b-/	.	2.r	.	.	2.r	.	.	2.r	.	.	2.r	.	.
8A-X\	.	8a-X/	.	.	.	.	.	.	.	.	.	.	.	.	.
8G\	.	8g/	.	.	.	.	.	.	.	.	.	.	.	.	.
8A-\	.	8a-/	.	.	.	.	.	.	.	.	.	.	.	.	.
8B-\	.	8b-/	.	.	.	.	.	.	.	.	.	.	.	.	.
8c\J	.	8cc/J	[[	.	.	.	.	.	.	.	.	.	.	.	.
=84	=84	=84	=84	=84	=84	=84	=84	=84	=84	=84	=84	=84	=84	=84	=84
!!linebreak:original
*xywh-199:128,1863,2023,399	*	*	*	*	*	*	*	*	*	*	*	*	*	*	*
*	*	*xywh-199:128,1863,2023,399	*	*	*	*	*	*	*	*	*	*	*	*	*
*	*	*	*	*xywh-199:131,1708,1963,204	*	*	*	*	*	*	*	*	*	*	*
*	*	*	*	*	*	*	*xywh-199:136,1544,1965,204	*	*	*	*	*	*	*	*
*	*	*	*	*	*	*	*	*	*	*xywh-199:158,1376,1965,219	*	*	*	*	*
*	*	*	*	*	*	*	*	*	*	*	*	*	*xywh-199:193,1231,1938,202	*	*
4d-X\	.	4dd-X\	.	4r	.	.	4r	.	.	4r	.	.	4r	.	.
8D-y\L	.	8dd-\L	.	4r	.	.	4r	.	.	4r	.	.	4r	.	.
8E-\J	.	8ee-\J	.	.	.	.	.	.	.	.	.	.	.	.	.
!	!	!	!	!	!	!LO:DY:rj:a	!	!	!LO:DY:rj:a	!	!	!LO:DY:rj:a	!	!	!LO:DY:rj:a
4F\ 4B- 4d-X	.	4f\ 4b- 4dd- 4ff	.	8B-\	da-	f	8B-\	da-	f	8d-X\	da-	f	8f\	da-	f
.	.	.	.	8B-\	-léj	.	8B-\	-léj	.	8d-\	-léj	.	8f\	-léj	.
=85	=85	=85	=85	=85	=85	=85	=85	=85	=85	=85	=85	=85	=85	=85	=85
4F\ 4An 4c	.	4f\ 4an 4cc 4ff	.	2F\	wgłąb	.	2A/	wgłąb	.	2c\	wgłąb	.	2f\	wgłąb	.
4r	.	4r	.	.	.	.	.	.	.	.	.	.	.	.	.
4D-X^\	.	4d-X^>/	.	4r	.	.	4r	.	.	4r	.	.	4r	.	.
=86	=86	=86	=86	=86	=86	=86	=86	=86	=86	=86	=86	=86	=86	=86	=86
8D-X\L	.	8d-X/L	.	2.r	.	.	2.r	.	.	2.r	.	.	2.r	.	.
8C\	.	8c/	.	.	.	.	.	.	.	.	.	.	.	.	.
8D-\	.	8d-/	<	.	.	.	.	.	.	.	.	.	.	.	.
8E-\	.	8e-/	.	.	.	.	.	.	.	.	.	.	.	.	.
8F\	.	8f/	.	.	.	.	.	.	.	.	.	.	.	.	.
8G-X\J	.	8g-X/J	.	.	.	.	.	.	.	.	.	.	.	.	.
=87	=87	=87	=87	=87	=87	=87	=87	=87	=87	=87	=87	=87	=87	=87	=87
8A-X\L	.	8a-X/L	.	2.r	.	.	2.r	.	.	2.r	.	.	2.r	.	.
8G\	.	8g/	.	.	.	.	.	.	.	.	.	.	.	.	.
8A-\	.	8a-/	.	.	.	.	.	.	.	.	.	.	.	.	.
8B-\	.	8b-/	.	.	.	.	.	.	.	.	.	.	.	.	.
8c\	.	8cc/	.	.	.	.	.	.	.	.	.	.	.	.	.
8d-X\J	.	8dd-X/J	[[	.	.	.	.	.	.	.	.	.	.	.	.
=88	=88	=88	=88	=88	=88	=88	=88	=88	=88	=88	=88	=88	=88	=88	=88
2e-\	.	2ee-\	.	4r	.	.	4r	.	.	4r	.	.	4r	.	.
.	.	.	.	4r	.	.	4r	.	.	4r	.	.	4r	.	.
!	!	!	!	!	!LO:MO:mod=z dźwię-	!	!	!LO:MO:mod=z dźwię-	!	!	!LO:MO:mod=z dźwię-	!	!	!LO:MO:mod=z dźwię-	!
4AAA-X/ 4AA-X	.	4a-X\ 4cc 4ee- 4aa-X	.	8A-X\	zdźwię-	.	8A-X/	zdźwię-	.	8c\	zdźwię-	.	8e-\	zdźwię-	.
.	.	.	.	8A-\	-kiem	.	8A-/	-kiem	.	8c\	-kiem	.	8e-\	-kiem	.
=89	=89	=89	=89	=89	=89	=89	=89	=89	=89	=89	=89	=89	=89	=89	=89
2DD-X;\ 2D-X	.	2f;\ 2a-X 2dd-X 2ff	.	2D-X;\	trąb!	.	2A-X;/	trąb!	.	2d-X;\	trąb!	.	2f;\	trąb!	.
!	!	!LO:TX:t=tremolo:a:i	!LO:DY:rj	!	!	!	!	!	!	!	!	!	!LO:TX:a:t=BORUS:i	!	!
4DD-\ 4D-	.	32F</LLL 32A-X<	p	4r	.	.	4r	.	.	4r	.	.	8d-X\	Chrze-	.
.	.	32d-X</	.	.	.	.	.	.	.	.	.	.	.	.	.
.	.	32F</ 32A-<	.	.	.	.	.	.	.	.	.	.	.	.	.
.	.	32d-</JJJ	.	.	.	.	.	.	.	.	.	.	.	.	.
.	.	32F</yy 32A-<LLLyy	.	.	.	.	.	.	.	.	.	.	8d-\	-ści-	.
.	.	32d-</yy	.	.	.	.	.	.	.	.	.	.	.	.	.
.	.	32F</yy 32A-yy<	.	.	.	.	.	.	.	.	.	.	.	.	.
.	.	32d-</JJJyy	.	.	.	.	.	.	.	.	.	.	.	.	.
=90	=90	=90	=90	=90	=90	=90	=90	=90	=90	=90	=90	=90	=90	=90	=90
!!linebreak:original
*xywh-199:136,2843,2030,444	*	*	*	*	*	*	*	*	*	*	*	*	*	*	*
*	*	*xywh-199:136,2843,2030,444	*	*	*	*	*	*	*	*	*	*	*	*	*
*	*	*	*	*xywh-199:139,2725,1980,202	*	*	*	*	*	*	*	*	*	*	*
*	*	*	*	*	*	*	*xywh-199:152,2561,1973,207	*	*	*	*	*	*	*	*
*	*	*	*	*	*	*	*	*	*	*xywh-199:159,2403,1948,204	*	*	*	*	*
*	*	*	*	*	*	*	*	*	*	*	*	*	*xywh-199:149,2196,1960,232	*	*
*	*	*tremolo	*	*	*	*	*	*	*	*	*	*	*	*	*
!	!	!LO:TX:a:t=colla parte.:i	!	!	!	!	!	!	!	!	!	!	!	!	!
2DD\ 2D-X	.	32G-X</LLL 32B--<	.	2.r	.	.	2.r	.	.	2.r	.	.	[2d\	-a-	.
.	.	32d</	.	.	.	.	.	.	.	.	.	.	.	.	.
.	.	32G-</ 32B--<	.	.	.	.	.	.	.	.	.	.	.	.	.
.	.	32d</	.	.	.	.	.	.	.	.	.	.	.	.	.
.	.	32G-</ 32B--<	.	.	.	.	.	.	.	.	.	.	.	.	.
.	.	32d</	.	.	.	.	.	.	.	.	.	.	.	.	.
.	.	32G-</ 32B--<	.	.	.	.	.	.	.	.	.	.	.	.	.
.	.	32d</	.	.	.	.	.	.	.	.	.	.	.	.	.
.	.	32G-</ 32B--<	.	.	.	.	.	.	.	.	.	.	.	.	.
.	.	32d</	.	.	.	.	.	.	.	.	.	.	.	.	.
.	.	32G-</ 32B--<	.	.	.	.	.	.	.	.	.	.	.	.	.
.	.	32d</	.	.	.	.	.	.	.	.	.	.	.	.	.
.	.	32G-</ 32B--<	.	.	.	.	.	.	.	.	.	.	.	.	.
.	.	32d</	.	.	.	.	.	.	.	.	.	.	.	.	.
.	.	32G-</ 32B--<	.	.	.	.	.	.	.	.	.	.	.	.	.
.	.	32d</	.	.	.	.	.	.	.	.	.	.	.	.	.
4DD\ 4D-	.	32G-</ 32B--<	.	.	.	.	.	.	.	.	.	.	8d\]	.	.
.	.	32d</	.	.	.	.	.	.	.	.	.	.	.	.	.
.	.	32G-</ 32B--<	.	.	.	.	.	.	.	.	.	.	.	.	.
.	.	32d</	.	.	.	.	.	.	.	.	.	.	.	.	.
.	.	32G-</ 32B--<	.	.	.	.	.	.	.	.	.	.	8d\	-nin	.
.	.	32d</	.	.	.	.	.	.	.	.	.	.	.	.	.
.	.	32G-</ 32B--<	.	.	.	.	.	.	.	.	.	.	.	.	.
.	.	32d</JJJ	.	.	.	.	.	.	.	.	.	.	.	.	.
=91	=91	=91	=91	=91	=91	=91	=91	=91	=91	=91	=91	=91	=91	=91	=91
2DD\ 2D-X	.	32G-X</LLL 32B--<	.	2.r	.	.	2.r	.	.	2.r	.	.	(4d\	wróg	.
.	.	32d</	.	.	.	.	.	.	.	.	.	.	.	.	.
.	.	32G-</ 32B--<	.	.	.	.	.	.	.	.	.	.	.	.	.
.	.	32d</	.	.	.	.	.	.	.	.	.	.	.	.	.
.	.	32G-</ 32B--<	.	.	.	.	.	.	.	.	.	.	.	.	.
.	.	32d</	.	.	.	.	.	.	.	.	.	.	.	.	.
.	.	32G-</ 32B--<	.	.	.	.	.	.	.	.	.	.	.	.	.
.	.	32d</	.	.	.	.	.	.	.	.	.	.	.	.	.
.	.	32G-</ 32B--<	.	.	.	.	.	.	.	.	.	.	4B--\)	.	.
.	.	32d</	.	.	.	.	.	.	.	.	.	.	.	.	.
.	.	32G-</ 32B--<	.	.	.	.	.	.	.	.	.	.	.	.	.
.	.	32d</	.	.	.	.	.	.	.	.	.	.	.	.	.
.	.	32G-</ 32B--<	.	.	.	.	.	.	.	.	.	.	.	.	.
.	.	32d</	.	.	.	.	.	.	.	.	.	.	.	.	.
.	.	32G-</ 32B--<	.	.	.	.	.	.	.	.	.	.	.	.	.
.	.	32d</	.	.	.	.	.	.	.	.	.	.	.	.	.
4DD\ 4D-	.	32G-</ 32B--<	.	.	.	.	.	.	.	.	.	.	8G/	ją	.
.	.	32d</	.	.	.	.	.	.	.	.	.	.	.	.	.
.	.	32G-</ 32B--<	.	.	.	.	.	.	.	.	.	.	.	.	.
.	.	32d</	.	.	.	.	.	.	.	.	.	.	.	.	.
.	.	32G-</ 32B--<	.	.	.	.	.	.	.	.	.	.	8r	.	.
.	.	32d</	.	.	.	.	.	.	.	.	.	.	.	.	.
.	.	32G-/ 32B--<	.	.	.	.	.	.	.	.	.	.	.	.	.
.	.	32d</JJJ	.	.	.	.	.	.	.	.	.	.	.	.	.
*	*	*Xtremolo	*	*	*	*	*	*	*	*	*	*	*	*	*
=92	=92	=92	=92	=92	=92	=92	=92	=92	=92	=92	=92	=92	=92	=92	=92
4DD-X\ 4D-X	.	32Fn</LLL 32A-X<	.	4r	.	.	4r	.	.	4r	.	.	(4F/	zwiódł!	.
.	.	32d</	.	.	.	.	.	.	.	.	.	.	.	.	.
.	.	32Fn</ 32A-<	.	.	.	.	.	.	.	.	.	.	.	.	.
.	.	32d</JJJ	.	.	.	.	.	.	.	.	.	.	.	.	.
.	.	32Fn</yy 32A-<yyLLL	.	.	.	.	.	.	.	.	.	.	.	.	.
.	.	32d/<yy	.	.	.	.	.	.	.	.	.	.	.	.	.
.	.	32Fn</yy 32A-<yy	.	.	.	.	.	.	.	.	.	.	.	.	.
.	.	32d</JJJyy	.	.	.	.	.	.	.	.	.	.	.	.	.
4DD-\ 4D-	.	4d</	.	4r	.	.	4r	.	.	4r	.	.	8A-X/)	.	.
.	.	.	.	.	.	.	.	.	.	.	.	.	8r	.	.
8.r	.	8.r	.	8.r	.	.	8.r	.	.	8.r	.	.	8.r	.	.
!	!	!	!	!	!	!	!	!	!	!	!	!	!LO:TX:a:t=CHÓR:i	!	!
16CC#X/ 16C#X	.	16c#X/ 16cc#X	.	16c#X\	Niech	.	16c#X\	Niech	.	16c#X\	Niech	.	16c#X\	Niech	.
=93	=93	=93	=93	=93	=93	=93	=93	=93	=93	=93	=93	=93	=93	=93	=93
[2CC#X/ [2C#X	.	[2c#X/ [2cc#X	.	2c#X\	zgi-	.	2c#X\	zgi-	.	2c#X\	zgi-	.	2c#X\	zgi-	.
8.CC#/L] 8.C#]	.	8.c#/L] 8.cc#]	.	8.c#\	-nie	.	8.c#\	-nie	.	8.c#\	-nie	.	8.c#\	-nie	.
16CC#/Jk 16C#	.	16c#/Jk 16cc#	.	16c#\	niech	.	16c#\	niech	.	16c#\	niech	.	16c#\	niech	.
=94	=94	=94	=94	=94	=94	=94	=94	=94	=94	=94	=94	=94	=94	=94	=94
!	!	!	!	!LO:N:vis=2	!	!	!	!	!	!LO:N:vis=2	!	!	!LO:N:vis=2	!	!
[2CC#X/ [2C#X	.	[2c#X/ [2cc#X	.	2.c#X\	zgi-	.	2.c#X\	zgi-	.	2.c#X\	zgi-	.	2.c#X\	zgi-	.
8.CC#/L] 8.C#]	.	8.c#/L] 8.cc#]	.	.	.	.	.	.	.	.	.	.	.	.	.
16CC#/Jk 16C#	.	16c#/Jk 16cc#	.	.	.	.	.	.	.	.	.	.	.	.	.
=95	=95	=95	=95	=95	=95	=95	=95	=95	=95	=95	=95	=95	=95	=95	=95
4CC#X/ 4C#X	.	4c#X^>/ 4cc#X	.	4c#X\	-nie	.	4c#X\	-nie	.	4c#X\	-nie	.	4c#X\	-nie	.
4En\	.	4en^>/	.	4En\	ob-	.	4E/	ob-	.	4E/	ob-	.	4E/	ob-	.
4G#X\	.	4g#X^>/	.	4G#X\	-cy	.	4G#X/	-cy	.	4G#X/	-cy	.	4G#X/	-cy	.
=96	=96	=96	=96	=96	=96	=96	=96	=96	=96	=96	=96	=96	=96	=96	=96
!!pagebreak:original
*xywh-200:437,888,2003,329	*	*	*	*	*	*	*	*	*	*	*	*	*	*	*
*	*	*xywh-200:437,888,2003,329	*	*	*	*	*	*	*	*	*	*	*	*	*
*	*	*	*	*xywh-200:462,733,1948,202	*	*	*	*	*	*	*	*	*	*	*
*	*	*	*	*	*	*	*xywh-200:477,583,1938,194	*	*	*	*	*	*	*	*
*	*	*	*	*	*	*	*	*	*	*xywh-200:479,419,1978,202	*	*	*	*	*
*	*	*	*	*	*	*	*	*	*	*	*	*	*xywh-200:482,204,1943,252	*	*
2C#X/	.	2c#X/	.	2C#X/	ród!	.	2C#X/	ród!	.	2C#X/	ród!	.	2C#X/	ród!	.
(<8C#/L	.	(8c#/L	.	8C#/	on	.	8C#/	on	.	8C#/	on	.	8C#/	on	.
8D#X/J	.	8d#/J	.	8D#X/	tu	.	8D#X/	tu	.	8D#X/	tu	.	8D#X/	tu	.
=97	=97	=97	=97	=97	=97	=97	=97	=97	=97	=97	=97	=97	=97	=97	=97
2En\)	.	2en/)	.	2En\	wlė-	.	2E/	wlė-	.	2E/	wlė-	.	2E/	wlé-	.
(8E\L	.	(8e/L	.	8E\	-ci	.	8E/	-ci	.	8E/	-ci	.	8E/	-ci	.
8F#X\J	.	8f#X/J	.	8E\	on	.	8E/	on	.	8F#X/	on	.	8F#X/	on	.
=98	=98	=98	=98	=98	=98	=98	=98	=98	=98	=98	=98	=98	=98	=98	=98
*	*	*^	*	*	*	*	*	*	*	*	*	*	*	*	*
*xywh-200:437,888,2003,329	*	*	*	*	*	*	*	*	*	*	*	*	*	*	*	*
*	*	*xywh-200:437,888,2003,329	*	*	*	*	*	*	*	*	*	*	*	*	*	*
*	*	*	*xywh-200:437,888,2003,329	*	*	*	*	*	*	*	*	*	*	*	*	*
!	!	!	!	!	!	!	!	!LO:SIC:v:s=4En/	!	!	!	!	!	!	!	!
2G#X\)	.	2g#X/)	2ryy	.	4En\	wlė-	.	4E-/	wle-	.	4G#X/	wle-	.	4G#X/	wlė-	.
!	!	!	!	!	!	!	!	!LO:SIC:v:s=4E/	!	!	!	!	!	!	!	!
.	.	.	.	.	4E\	-ci	.	4E-/	-ci	.	4G#/	-ci	.	4G#/	-ci	.
!	!	!	!	!	!	!	!	!LO:SIC:v:s=8E/	!	!	!	!	!	!	!	!
4En\	.	4g#/	8en\L	.	8E\	w na-	.	8E-/	w na-	.	8G#/	w na-	.	8G#/	w na-	.
!	!	!	!	!	!	!	!	!LO:SIC:v:s=8E/	!	!	!	!	!	!	!	!
.	.	.	8d\J	.	8E\	-szą	.	8E-/	-szą	.	8G#/	-szą	.	8G#/	-szą	.
*	*	*v	*v	*	*	*	*	*	*	*	*	*	*	*	*	*
=99	=99	=99	=99	=99	=99	=99	=99	=99	=99	=99	=99	=99	=99	=99	=99
2.AA/ 2.En	.	[2.c#X/ [2.a	.	2AA/	sieć;	.	2E/	sieć;	.	2A/	sieć;	.	2.A/	sieć;	.
!	!	!	!	!	!	!	!	!	!	!LO:N:vis:xstem	!	!	!	!	!
.	.	.	.	4AA/	słoń-	.	4A/	słoń-	.	4A/	słoń-	.	.	.	.
=100	=100	=100	=100	=100	=100	=100	=100	=100	=100	=100	=100	=100	=100	=100	=100
!	!	!	!	!	!	!LO:DY:rj:a	!	!	!LO:DY:rj:a	!	!	!LO:DY:rj:a	!	!	!
2AA/ 2En	.	2c#/] 2a]	.	2A\	-ca	f	2A/	-ca	f	2A/	-ca	f	2.r	.	.
!	!	!	!LO:DY:rj	!	!	!	!	!	!	!	!	!	!	!	!
8AA/L 8A	.	8a/L	f	8A\	słoń-	.	8A/	słoń-	.	8A/	słoń-	.	.	.	.
8AA/J 8A	.	8a/J	.	8A\	-ca	.	8A/	-ca	.	8A/	-ca	.	.	.	.
=101	=101	=101	=101	=101	=101	=101	=101	=101	=101	=101	=101	=101	=101	=101	=101
2AA/ 2A	.	2a/	.	2A\	blask	.	2A/	blask	.	2A/	blask	.	2.r	.	.
8AA/L 8A	.	8a/L	.	8A\	zgaś-	.	8A/	zgaś-	.	8A/	zgaś-	.	.	.	.
8AA/J 8A	.	8a/J	.	8A\	-nie	.	8A/	-nie	.	8A/	-nie	.	.	.	.
=102	=102	=102	=102	=102	=102	=102	=102	=102	=102	=102	=102	=102	=102	=102	=102
!!linebreak:original
*xywh-200:457,1815,1953,424	*	*	*	*	*	*	*	*	*	*	*	*	*	*	*
*	*	*xywh-200:457,1815,1953,424	*	*	*	*	*	*	*	*	*	*	*	*	*
*	*	*	*	*xywh-200:487,1685,1923,184	*	*	*	*	*	*	*	*	*	*	*
*	*	*	*	*	*	*	*xywh-200:512,1518,1898,204	*	*	*	*	*	*	*	*
*	*	*	*	*	*	*	*	*	*	*xywh-200:504,1383,1940,194	*	*	*	*	*
*	*	*	*	*	*	*	*	*	*	*	*	*	*xywh-200:489,1211,1918,202	*	*
4AA\ 4A	.	4a^/	.	4A\	wprzód	.	4A/	wprzód	.	4A/	wprzód	.	2.r	.	.
4CC/ 4C	.	4c^/	.	4Cn/	zgaś-	.	4C/	zgaś-	.	4C/	zgaś-	.	.	.	.
4EEny/ 4En	.	4en^/	.	4En\	-nie	.	4E/	-nie	.	4E/	-nie	.	.	.	.
=103	=103	=103	=103	=103	=103	=103	=103	=103	=103	=103	=103	=103	=103	=103	=103
!	!	!	!LO:DY:rj	!	!	!	!	!	!	!	!	!	!	!	!
2AAA/ 2AA	.	2A/	sf	2AA/	wprzód	.	2AA/	wprzód	.	2A/	wprzód	.	2.r	.	.
8AAA/L 8AA	.	8A/L	.	(8AA/L	nim	.	(8AA/L	nim	.	(8A/L	nim	.	.	.	.
8BBBn/J 8BBn	.	8Bn/J	.	8BBn/J)	.	.	8BB/J)	.	.	8B/J)	.	.	.	.	.
=104	=104	=104	=104	=104	=104	=104	=104	=104	=104	=104	=104	=104	=104	=104	=104
2CC^/ 2C	.	2cn^/	.	2C^>/	wróg	.	2C^>/	wróg	.	2c^\	wróg	.	2c^\	Wróg	.
8CC/L 8C	.	8c/L	.	8C/	nim	.	8E-/	nim	.	8c\	nim	.	8c\	nim	.
8DD/J 8D	.	8d/J	.	8C/	nasz	.	8F/	nasz	.	8d\	nasz	.	8d\	nasz	.
=105	=105	=105	=105	=105	=105	=105	=105	=105	=105	=105	=105	=105	=105	=105	=105
8CC/L 8C	.	8G/L 8B-X 8c 8en	.	2C/	wróg	.	2G/	wróg	.	2c\	wróg	.	2e\	wróg	.
8CC/J 8C	.	8G/J 8B- 8c 8e	.	.	.	.	.	.	.	.	.	.	.	.	.
4CC/ 4C	.	4G/ 4B- 4c 4e	.	.	.	.	.	.	.	.	.	.	.	.	.
4CC/ 4C	.	4G/ 4B- 4c 4e	.	4C/	ją	.	4G/	ją	.	4B-X\	ją	.	4e\	ją	.
=106	=106	=106	=106	=106	=106	=106	=106	=106	=106	=106	=106	=106	=106	=106	=106
2.FFF/ 2.FF	.	2.F/ 2.A 2.c 2.f	.	2F\	bę-	.	2A/	bę-	.	2A/	bę-	.	2f\	bę-	.
.	.	.	.	4F\	-dzie	.	4A/	-dzie	.	4A/	-dzie	.	4f\	-dzie	.
=107	=107	=107	=107	=107	=107	=107	=107	=107	=107	=107	=107	=107	=107	=107	=107
!!linebreak:original
*xywh-200:439,2844,1958,432	*	*	*	*	*	*	*	*	*	*	*	*	*	*	*
*	*	*xywh-200:439,2844,1958,432	*	*	*	*	*	*	*	*	*	*	*	*	*
*	*	*	*	*xywh-200:472,2686,1953,207	*	*	*	*	*	*	*	*	*	*	*
*	*	*	*	*	*	*	*xywh-200:467,2512,1968,219	*	*	*	*	*	*	*	*
*	*	*	*	*	*	*	*	*	*	*xywh-200:469,2367,1930,204	*	*	*	*	*
*	*	*	*	*	*	*	*	*	*	*	*	*	*xywh-200:489,2204,1925,209	*	*
4FFF\ 4FF	.	2A</	.	2F\	mieć!	.	2F/	mieć!	.	2F/	mieć!	.	2F/	mieć!	.
16FFF/LL 16FF	.	.	.	.	.	.	.	.	.	.	.	.	.	.	.
16FFF/	.	.	.	.	.	.	.	.	.	.	.	.	.	.	.
16GGG/	.	.	.	.	.	.	.	.	.	.	.	.	.	.	.
16AAA/JJ	.	.	.	.	.	.	.	.	.	.	.	.	.	.	.
!	!	!	!	!	!	!LO:DY:rj:a	!	!	!	!	!	!	!	!	!
16BBB-\LL	.	8A</L	.	8F\	słoń-	f	4r	.	.	4r	.	.	4r	.	.
16CC\	.	.	.	.	.	.	.	.	.	.	.	.	.	.	.
16DD\	.	8A</J	.	8F\	-ca	.	.	.	.	.	.	.	.	.	.
16EEn\JJ	.	.	.	.	.	.	.	.	.	.	.	.	.	.	.
=108	=108	=108	=108	=108	=108	=108	=108	=108	=108	=108	=108	=108	=108	=108	=108
16FF\LL	.	2A</	.	2F\	blask	.	4r	.	.	2.r	.	.	2.r	.	.
16EEn\	.	.	.	.	.	.	.	.	.	.	.	.	.	.	.
!	!	!	!LO:HP:t=cres.	!	!	!	!	!	!	!	!	!	!	!	!
16FF\	.	.	<	.	.	.	.	.	.	.	.	.	.	.	.
16EE\JJ	.	.	.	.	.	.	.	.	.	.	.	.	.	.	.
16FF\LL	.	.	.	.	.	.	4r	.	.	.	.	.	.	.	.
16EE\	.	.	.	.	.	.	.	.	.	.	.	.	.	.	.
16FF\	.	.	.	.	.	.	.	.	.	.	.	.	.	.	.
16EE\JJ	.	.	.	.	.	.	.	.	.	.	.	.	.	.	.
!	!	!	!	!	!	!	!	!	!LO:DY:rj:a	!	!	!	!	!	!
16FF\LL	.	8F</L 8A<	.	8E-\	zgaś-	.	8A/	zgaś-	f	.	.	.	.	.	.
16EE\	.	.	.	.	.	.	.	.	.	.	.	.	.	.	.
16FF\	.	8F</J 8A<	.	8F\	-nie	.	8A/	-nie	.	.	.	.	.	.	.
16EE\JJ	.	.	.	.	.	.	.	.	.	.	.	.	.	.	.
=109	=109	=109	=109	=109	=109	=109	=109	=109	=109	=109	=109	=109	=109	=109	=109
16FF\LL	.	2F</ 2A<	.	2F\	wprzód	.	2A/	wprzód	.	4r	.	.	2.r	.	.
16EEn\	.	.	.	.	.	.	.	.	.	.	.	.	.	.	.
16FF\	.	.	.	.	.	.	.	.	.	.	.	.	.	.	.
16EE\JJ	.	.	.	.	.	.	.	.	.	.	.	.	.	.	.
16FF\LL	.	.	.	.	.	.	.	.	.	4r	.	.	.	.	.
16EE\	.	.	.	.	.	.	.	.	.	.	.	.	.	.	.
16FF\	.	.	.	.	.	.	.	.	.	.	.	.	.	.	.
16EE\JJ	.	.	.	.	.	.	.	.	.	.	.	.	.	.	.
!	!	!	!	!	!	!	!	!	!	!	!	!LO:DY:rj:a	!	!	!
16FF\LL	.	8F</L 8A< 8c<	.	8F\	słoń-	.	8A/	słoń-	.	8c\	słoń-	f	.	.	.
16EE\	.	.	.	.	.	.	.	.	.	.	.	.	.	.	.
16FF\	.	8F</J 8A< 8c<	.	8F\	-ca	.	8G/	-ca	.	8c\	-ca	.	.	.	.
16EE\JJ	.	.	.	.	.	.	.	.	.	.	.	.	.	.	.
=110	=110	=110	=110	=110	=110	=110	=110	=110	=110	=110	=110	=110	=110	=110	=110
16FF\LL	.	2F</ 2A< 2c<	.	2F\	blask	.	2A/	blask	.	2c\	blask	.	4r	.	.
16EEn\	.	.	.	.	.	.	.	.	.	.	.	.	.	.	.
16FF\	.	.	.	.	.	.	.	.	.	.	.	.	.	.	.
16EE\JJ	.	.	.	.	.	.	.	.	.	.	.	.	.	.	.
16FF\LL	.	.	.	.	.	.	.	.	.	.	.	.	4r	.	.
16EE\	.	.	.	.	.	.	.	.	.	.	.	.	.	.	.
16FF\	.	.	.	.	.	.	.	.	.	.	.	.	.	.	.
16EE\JJ	.	.	.	.	.	.	.	.	.	.	.	.	.	.	.
!	!	!	!	!	!	!LO:DY:rj:a	!	!	!LO:DY:rj:a	!	!	!LO:DY:rj:a	!	!	!LO:DY:rj:a
16FF\LL	.	8F</L 8A< 8c< 8f	.	8F\	zgaś-	f	8A/	zgaś-	f	8c\	zgaś-	f	8f\	zgaś-	f
16EE\	.	.	.	.	.	.	.	.	.	.	.	.	.	.	.
16FF\	.	8F</J 8A< 8c< 8f	.	8F\	-nie	.	8A/	-nie	.	8c\	-nie	.	8f\	-nie	.
16EE\JJ	.	.	.	.	.	.	.	.	.	.	.	.	.	.	.
=111	=111	=111	=111	=111	=111	=111	=111	=111	=111	=111	=111	=111	=111	=111	=111
4FF\	.	4F</ 4A< 4c< 4f	.	2F\	wprzód	.	2A/	wprzód	.	2c\	wprzód	.	2f\	wprzód	.
8FF\L	.	4F</ 4A< 4c< 4f	.	.	.	.	.	.	.	.	.	.	.	.	.
16FF\L	.	.	.	.	.	.	.	.	.	.	.	.	.	.	.
16GG\JJ	.	.	.	.	.	.	.	.	.	.	.	.	.	.	.
16AA\LL	.	4F</ 4A< 4c< 4f	.	4F\	nim nasz	.	8A/	nim	.	8c\	nim	.	8f\	nim	.
16BB-\	.	.	.	.	.	.	.	.	.	.	.	.	.	.	.
16C\	.	.	.	.	.	.	8A/	nasz	.	8c\	nasz	.	8f\	nasz	.
16D\JJ	.	.	.	.	.	.	.	.	.	.	.	.	.	.	.
=112	=112	=112	=112	=112	=112	=112	=112	=112	=112	=112	=112	=112	=112	=112	=112
!!pagebreak:original
*xywh-201:146,882,2000,412	*	*	*	*	*	*	*	*	*	*	*	*	*	*	*
*	*	*xywh-201:146,882,2000,412	*	*	*	*	*	*	*	*	*	*	*	*	*
*	*	*	*	*xywh-201:173,735,1995,222	*	*	*	*	*	*	*	*	*	*	*
*	*	*	*	*	*	*	*xywh-201:191,580,1973,224	*	*	*	*	*	*	*	*
*	*	*	*	*	*	*	*	*	*	*xywh-201:173,413,1993,232	*	*	*	*	*
*	*	*	*	*	*	*	*	*	*	*	*	*	*xywh-201:163,175,1985,312	*	*
!	!	!	!	!	!	!LO:DY:rj:a	!	!	!LO:DY:rj:a	!	!	!LO:DY:rj:a	!	!	!LO:DY:rj:a
2E-X\	sf >	4F</ 4A< 4c< 4f	.	(2.E-\	wróg	f	[>2.A/	wróg	f	[2.c\	wróg	f	[2.f\	wróg	f
.	]	4F</ 4A< 4c< 4f	.	.	.	.	.	.	.	.	.	.	.	.	.
(16E-\LL	.	4F</ 4A< 4c< 4f	.	.	.	.	.	.	.	.	.	.	.	.	.
16F\	.	.	.	.	.	.	.	.	.	.	.	.	.	.	.
16E-\	.	.	.	.	.	.	.	.	.	.	.	.	.	.	.
16D\JJ)	.	.	.	.	.	.	.	.	.	.	.	.	.	.	.
=113	=113	=113	=113	=113	=113	=113	=113	=113	=113	=113	=113	=113	=113	=113	=113
2C\	.	4F</ 4A< 4c< 4f	.	4F\)	.	.	4A\]	.	.	4c\]	.	.	4f\]	.	.
.	.	4F</ 4A< 4c< 4f	.	4r	.	.	4r	.	.	4r	.	.	4r	.	.
(16C\LL	.	4F</ 4A< 4c< 4f	.	4c\	ją	.	4c\	ją	.	4c\	ją	.	4c\	ją	.
16D\	.	.	.	.	.	.	.	.	.	.	.	.	.	.	.
16C\	.	.	.	.	.	.	.	.	.	.	.	.	.	.	.
16BB-\JJ)	.	.	.	.	.	.	.	.	.	.	.	.	.	.	.
=114	=114	=114	=114	=114	=114	=114	=114	=114	=114	=114	=114	=114	=114	=114	=114
2AA\	.	4F</ 4A< 4c< 4f	.	4F\	bę-	.	4A/	bę-	.	4c\	bę-	.	4f\	bę-	.
.	.	4F</ 4A< 4c< 4f	.	4F\	-dzie	.	4A/	-dzie	.	4c\	-dzie	.	4f\	-dzie	.
16AA/LL	.	4F</ 4A< 4c< 4f	.	8F\	bę-	.	8A/	bę-	.	8c\	bę-	.	8f\	bę-	.
16BB-/	.	.	.	.	.	.	.	.	.	.	.	.	.	.	.
16AA/	.	.	.	8F\	-dzie	.	8A/	-dzie	.	8c\	-dzie	.	8f\	-dzie	.
16GG/JJ	.	.	.	.	.	.	.	.	.	.	.	.	.	.	.
=115	=115	=115	=115	=115	=115	=115	=115	=115	=115	=115	=115	=115	=115	=115	=115
[4FF\	.	4F</ 4A< 4c< 4f	.	2F\	mieć	.	2A/	mieć	.	2c\	mieć	.	2f\	mieć	.
8FF\L]	.	4F</ 4A< 4c< 4f	.	.	.	.	.	.	.	.	.	.	.	.	.
16FF\L	.	.	.	.	.	.	.	.	.	.	.	.	.	.	.
16GG\JJ	.	.	.	.	.	.	.	.	.	.	.	.	.	.	.
16AA\LL	.	4F</ 4A< 4c< 4f	.	4F\	nim	.	4A/	nim	.	4c\	nim	.	4f\	nim	.
16BB-\	.	.	.	.	.	.	.	.	.	.	.	.	.	.	.
16C\	.	.	.	.	.	.	.	.	.	.	.	.	.	.	.
16D\JJ	.	.	.	.	.	.	.	.	.	.	.	.	.	.	.
=116	=116	=116	=116	=116	=116	=116	=116	=116	=116	=116	=116	=116	=116	=116	=116
2E-X\	sf	4F</ 4A< 4c< 4f	.	2.F\	wróg	.	2.A/	wróg	.	2.c\	wróg	.	2.f\	wróg	.
.	.	4F</ 4A< 4c< 4f	.	.	.	.	.	.	.	.	.	.	.	.	.
(16E-\LL	.	4F</ 4A< 4c< 4f	.	.	.	.	.	.	.	.	.	.	.	.	.
16F\	.	.	.	.	.	.	.	.	.	.	.	.	.	.	.
16E-\	.	.	.	.	.	.	.	.	.	.	.	.	.	.	.
16D\JJ)	.	.	.	.	.	.	.	.	.	.	.	.	.	.	.
=117	=117	=117	=117	=117	=117	=117	=117	=117	=117	=117	=117	=117	=117	=117	=117
!!linebreak:original
*xywh-201:148,1836,1998,429	*	*	*	*	*	*	*	*	*	*	*	*	*	*	*
*	*	*xywh-201:148,1836,1998,429	*	*	*	*	*	*	*	*	*	*	*	*	*
*	*	*	*	*xywh-201:168,1696,1953,234	*	*	*	*	*	*	*	*	*	*	*
*	*	*	*	*	*	*	*xywh-201:166,1549,2020,229	*	*	*	*	*	*	*	*
*	*	*	*	*	*	*	*	*	*	*xywh-201:178,1407,1968,207	*	*	*	*	*
*	*	*	*	*	*	*	*	*	*	*	*	*	*xywh-201:211,1249,1980,232	*	*
2C\	.	4F</ 4A</ 4c</ 4f/	.	4F\	ją	.	4A\	ją	.	4c\	ją	.	4f\	ją	.
.	.	4F</ 4A< 4c< 4f	.	4r	.	.	4r	.	.	4r	.	.	4r	.	.
16C\LL	.	4F</ 4A< 4c< 4f	.	8c\	bę-	.	8c\	bę-	.	8c\	bę-	.	8c\	bę-	.
16D\	.	.	.	.	.	.	.	.	.	.	.	.	.	.	.
16C\	.	.	.	8c\	-dzie	.	8c\	-dzie	.	8c\	-dzie	.	8c\	-dzie	.
16BB-\JJ	.	.	.	.	.	.	.	.	.	.	.	.	.	.	.
=118	=118	=118	=118	=118	=118	=118	=118	=118	=118	=118	=118	=118	=118	=118	=118
2.AA^/	.	4A/ 4c 4f	.	2A\	mieć!	.	2A\	mieć!	.	2c\	mieć!	.	2f\	mieć!	.
.	.	4A/ 4c 4f	.	.	.	.	.	.	.	.	.	.	.	.	.
.	.	4A/ 4c 4f	.	8A\	per-	.	8c\	per-	.	8c\	per-	.	8f\	per-	.
.	.	.	.	8A\	-wej	.	8c\	-wej	.	8c\	-wej	.	8f\	-wej	.
=119	=119	=119	=119	=119	=119	=119	=119	=119	=119	=119	=119	=119	=119	=119	=119
2AA-X/	.	4A-X^>/ 4c 4e-X 4f#X	.	4A-X\	sko-	.	4c\	sko-	.	4e-X\	sko-	.	4f#X\	sko-	.
.	.	4A-/ 4c 4e- 4f#	.	4A-\	-na	.	4c\	-na	.	4e-\	-na	.	4f#\	-na	.
4AA-/	.	8A-/L 8c 8e- 8f#	.	8A-\	wia-	.	8c\	wia-	.	8e-\	wia-	.	8f#\	wia-	.
.	.	8A-/J 8c 8e- 8f#	.	8A-\	-trów	.	8c\	-trów	.	8e-\	-trów	.	8f#\	-trów	.
=120	=120	=120	=120	=120	=120	=120	=120	=120	=120	=120	=120	=120	=120	=120	=120
2GG/	.	4G/ 4c 4e-X 4g	.	2G\	dech	.	2c\	dech	.	2e-\	dech	.	2g\	dech	.
.	.	8G/L 8c 8e- 8g	.	.	.	.	.	.	.	.	.	.	.	.	.
.	.	8G/J 8c 8e- 8g	.	.	.	.	.	.	.	.	.	.	.	.	.
4GG/	.	4G/ 4c 4e- 4g	.	4G\	mo-	.	4c\	mo-	.	4e-\	mo-	.	4g\	mo-	.
=121	=121	=121	=121	=121	=121	=121	=121	=121	=121	=121	=121	=121	=121	=121	=121
[4GG/	.	4G/ 4c 4e- 4g	.	2G\	-rze	.	2c\	-rze	.	2e-\	-rze	.	2g\	-rze	.
8GG/L]	.	4G/ 4c 4e- 4g	.	.	.	.	.	.	.	.	.	.	.	.	.
16AA/L	.	.	.	.	.	.	.	.	.	.	.	.	.	.	.
16BBn/JJ	.	.	.	.	.	.	.	.	.	.	.	.	.	.	.
16C\LL	.	4G/ 4c 4e- 4g	.	8G\	su-	.	8c\	su-	.	8e-\	su-	.	8e-\	su-	.
16D\	.	.	.	.	.	.	.	.	.	.	.	.	.	.	.
16E-X\	.	.	.	8G\	-nie	.	8c\	-nie	.	8c\	-nie	.	8c\	-nie	.
16F\JJ	.	.	.	.	.	.	.	.	.	.	.	.	.	.	.
=122	=122	=122	=122	=122	=122	=122	=122	=122	=122	=122	=122	=122	=122	=122	=122
!!linebreak:original
*xywh-201:127,2810,2040,507	*	*	*	*	*	*	*	*	*	*	*	*	*	*	*
*	*	*xywh-201:127,2810,2040,507	*	*	*	*	*	*	*	*	*	*	*	*	*
*	*	*	*	*xywh-201:129,2685,1983,219	*	*	*	*	*	*	*	*	*	*	*
*	*	*	*	*	*	*	*xywh-201:157,2530,1948,242	*	*	*	*	*	*	*	*
*	*	*	*	*	*	*	*	*	*	*xywh-201:162,2388,1958,219	*	*	*	*	*
*	*	*	*	*	*	*	*	*	*	*	*	*	*xywh-201:177,2208,1913,224	*	*
2G\	.	4Bn/ 4d 4g	sf	2G\	się	.	2G/	się	.	2G/	się	.	2G\	się	.
.	.	4B/ 4d 4g	.	.	.	.	.	.	.	.	.	.	.	.	.
4F\	.	4G/ 4B 4d 4g	.	4FnX\	aż	.	4F/	aż	.	4G/	aż	.	4G/	aż	.
=123	=123	=123	=123	=123	=123	=123	=123	=123	=123	=123	=123	=123	=123	=123	=123
*	*	*^	*	*	*	*	*	*	*	*	*	*	*	*	*
*xywh-201:127,2810,2040,507	*	*	*	*	*	*	*	*	*	*	*	*	*	*	*	*
*	*	*xywh-201:127,2810,2040,507	*	*	*	*	*	*	*	*	*	*	*	*	*	*
*	*	*	*xywh-201:127,2810,2040,507	*	*	*	*	*	*	*	*	*	*	*	*	*
4E-X^\	.	4G/ 4c/ 4e- 4g	4ryy	.	4E-\	tu	.	4E-/	tu	.	2G/	tu	.	2G/	tu	.
8E-^\L	.	4e/- 4g/ 4cc	4ryy	.	(8E-\L	.nim	.	(8E-/L	nim	.	.	.	.	.	.	.
8D^\J	.	.	.	.	8D\J)	.	.	8D/J)	.	.	.	.	.	.	.	.
4C^\	.	8cc/L	4g\	.	4C\	jéj	.	4C/	jéj	.	8G/	nim	.	8c\	nim	.
.	.	8ee-/J	.	.	.	.	<	.	.	<	8c\	jéj	<	8e-\	jéj	<
=124	=124	=124	=124	=124	=124	=124	=124	=124	=124	=124	=124	=124	=124	=124	=124	=124
2GG/	.	2gg/	4bn\	.	2GG/	czo-	.	2.G\	czo-	.	2B\	czo-	.	4g\	czo-	.
!	!	!	!	!	!LO:TX:a:t=rall:i	!	!	!LO:TX:a:t=rall:i	!	!	!LO:TX:a:t=rall:i	!	!	!LO:TX:a:t=rall:i	!	!
.	.	.	.	<	.	.	.	.	.	.	.	.	.	.	.	.
.	.	.	4g\	[[	.	.	.	.	.	.	.	.	.	4g\	-ło	.
4BBn/	.	4gg/	4g\ 4dd	.	4BBn/	-ło	.	.	.	.	4d\	-ło	.	8f\	chy-	.
.	.	.	.	.	.	.	.	.	.	.	.	.	.	8f\	-try	.
*	*	*v	*v	*	*	*	*	*	*	*	*	*	*	*	*	*
=125	=125	=125	=125	=125	=125	=125	=125	=125	=125	=125	=125	=125	=125	=125	=125
2C/	.	4g^\ 4ee-	.	2C/	chy-	.	2G/	-ło	.	2.c\	lech	.	4e-\	lech	.
.	.	8g^\L 8ee-	.	.	.	.	.	.	.	.	.	.	(8e-\L	zlać	.
.	.	8dd^\J	.	.	.	.	.	.	.	.	.	.	8d\J)	.	.
8E-\L	.	4cc^\	.	(8E-\L	-try	.	4G/	lech	.	.	.	.	4c\	po-	.
8F\J	.	.	.	8F\J)	.	.	.	.	.	.	.	.	.	.	.
=126	=126	=126	=126	=126	=126	=126	=126	=126	=126	=126	=126	=126	=126	=126	=126
!	!	!LO:SIC:v:s=4bn:n=2	!	!	!	!	!	!	!	!	!	!	!	!	!
16GG\LL	.	4g^\ 4b- 4dd	.	4G\	lech	.	2G/	zle-	.	(4B\	zle-	.	(4d\	-tra-	.
16G\	.	.	.	.	.	.	.	.	.	.	.	.	.	.	.
16GG\	.	.	.	.	.	.	.	.	.	.	.	.	.	.	.
16G\JJ	.	.	.	.	.	.	.	.	.	.	.	.	.	.	.
16GG\LL	.	4g^\ 4cc 4ee-	.	4C\	zle-	.	.	.	.	4c\)	.	.	4e-\)	.	.
16G\	.	.	.	.	.	.	.	.	.	.	.	.	.	.	.
16GG\	.	.	.	.	.	.	.	.	.	.	.	.	.	.	.
16G\JJ	.	.	.	.	.	.	.	.	.	.	.	.	.	.	.
!	!	!LO:SIC:v:s=4b:n=2	!	!	!	!	!	!	!	!	!	!	!	!	!
16GG\LL	.	4g^\ 4b- 4dd	.	4G\	-je	.	4G/	-je	.	4B\	-je	.	4d\	-fi	.
16G\	.	.	.	.	.	.	.	.	.	.	.	.	.	.	.
16GG\	.	.	.	.	.	.	.	.	.	.	.	.	.	.	.
16G\JJ	.	.	.	.	.	.	.	.	.	.	.	.	.	.	.
=127	=127	=127	=127	=127	=127	=127	=127	=127	=127	=127	=127	=127	=127	=127	=127
!!pagebreak:original
*xywh-202:407,871,2026,407	*	*	*	*	*	*	*	*	*	*	*	*	*	*	*
*	*	*xywh-202:407,871,2026,407	*	*	*	*	*	*	*	*	*	*	*	*	*
*	*	*	*	*xywh-202:461,715,1975,224	*	*	*	*	*	*	*	*	*	*	*
*	*	*	*	*	*	*	*xywh-202:440,565,1981,203	*	*	*	*	*	*	*	*
*	*	*	*	*	*	*	*	*	*	*xywh-202:434,409,1978,188	*	*	*	*	*
*	*	*	*	*	*	*	*	*	*	*	*	*	*xywh-202:410,169,2005,281	*	*
16GG\LL	.	4g^\ 4cc 4ee-	.	(4C\	wo-	.	2G/	wo-	.	(4c\	wo-	.	(4e-\	wo-	.
16G\	.	.	.	.	.	.	.	.	.	.	.	.	.	.	.
16GG\	.	.	.	.	.	.	.	.	.	.	.	.	.	.	.
16G\JJ	.	.	.	.	.	.	.	.	.	.	.	.	.	.	.
16GG\LL	.	4g^\ 4bn 4dd	.	4G\)	.	.	.	.	.	4B\)	.	.	4d\)	.	.
16G\	.	.	.	.	.	.	.	.	.	.	.	.	.	.	.
16GG\	.	.	.	.	.	.	.	.	.	.	.	.	.	.	.
16G\JJ	.	.	.	.	.	.	.	.	.	.	.	.	.	.	.
16GG\LL	.	4g^\ 4cc 4ee-	.	4C\	-dą	.	4G/	-dą	.	4c\	-dą	.	4e-\	-dą	.
16G\	.	.	.	.	.	.	.	.	.	.	.	.	.	.	.
16GG\	.	.	.	.	.	.	.	.	.	.	.	.	.	.	.
16G\JJ	.	.	.	.	.	.	.	.	.	.	.	.	.	.	.
=128	=128	=128	=128	=128	=128	=128	=128	=128	=128	=128	=128	=128	=128	=128	=128
2.GG;\ 2.G	.	2.g;\ 2.bn 2.dd	.	2G;\	chrztu!	.	2G;\	chrztu!	.	2B;\	chrztu!	.	2d;\	chrztu!	.
.	.	.	.	4r	.	.	4r	.	.	4r	.	.	4r	.	.
=129	=129	=129	=129	=129	=129	=129	=129	=129	=129	=129	=129	=129	=129	=129	=129
2BB-:\ 2B-:	.	2f:/ 2a-X: 2b-X: 2dd:	p	4r	.	.	2.r	.	.	2.r	.	.	2.r	.	.
!	!	!	!	!LO:TX:a:t=Recit.:i	!	!	!	!	!	!	!	!	!	!	!
.	.	.	.	4r	.	.	.	.	.	.	.	.	.	.	.
4r	.	4r	.	8r	.	.	.	.	.	.	.	.	.	.	.
!	!	!	!	!LO:TX:a:t=Bas solo.:i	!	!	!	!	!	!	!	!	!	!	!
.	.	.	.	8B-\	Niech	.	.	.	.	.	.	.	.	.	.
=130	=130	=130	=130	=130	=130	=130	=130	=130	=130	=130	=130	=130	=130	=130	=130
!	!	!	!	!	!LO:MO:mod=z nią	!	!	!	!	!	!	!	!	!	!
2.r	.	2.r	.	8.B-\	znią	.	2.r	.	.	2.r	.	.	2.r	.	.
.	.	.	.	16B-\	prze-	.	.	.	.	.	.	.	.	.	.
.	.	.	.	8.B-\	-pad-	.	.	.	.	.	.	.	.	.	.
.	.	.	.	16B-\	-niė	.	.	.	.	.	.	.	.	.	.
.	.	.	.	8.B-\	ob-	.	.	.	.	.	.	.	.	.	.
.	.	.	.	16B-\	-cy	.	.	.	.	.	.	.	.	.	.
=131	=131	=131	=131	=131	=131	=131	=131	=131	=131	=131	=131	=131	=131	=131	=131
2BBB-;/ 2BB-	.	2A-X;/ 2B- 2d	.	2BB-;/	ród!	.	2.r;	.	.	4r	.	.	4r	.	.
.	.	.	.	.	.	.	.	.	.	4r;	.	.	4r;	.	.
!	!	!	!LO:DY:rj	!	!	!	!	!	!	!	!	!LO:DY:b:rj	!	!	!LO:DY:b:rj
4r	.	(8g/L	p	8r	.	.	.	.	.	(8E-/L	Da-	p	(8G/L	Da-	p
!	!	!	!	!LO:TX:a:t=Chór.:i:rj	!	!LO:DY:b:rj	!	!	!	!	!	!	!LO:SIC:v:s=8A-/J)	!	!
.	.	8a-X/J)	.	8E-\	Da-	p	.	.	.	8F/J)	.	.	8A/J)	.	.
=132	=132	=132	=132	=132	=132	=132	=132	=132	=132	=132	=132	=132	=132	=132	=132
!!linebreak:original
*xywh-202:449,1863,1996,359	*	*	*	*	*	*	*	*	*	*	*	*	*	*	*
*	*	*xywh-202:449,1863,1996,359	*	*	*	*	*	*	*	*	*	*	*	*	*
*	*	*	*	*xywh-202:473,1710,1957,209	*	*	*	*	*	*	*	*	*	*	*
*	*	*	*	*	*	*	*xywh-202:482,1560,1933,182	*	*	*	*	*	*	*	*
*	*	*	*	*	*	*	*	*	*	*xywh-202:482,1398,1933,203	*	*	*	*	*
*	*	*	*	*	*	*	*	*	*	*	*	*	*xywh-202:470,1227,1939,224	*	*
!	!	!	!	!LO:TX:a:i:t=più animato.	!	!	!LO:TX:a:i:t=più animato.	!	!	!LO:TX:a:i:t=più animato.	!	!	!LO:TX:a:i:t=più animato.	!	!
2E-\ 2G 2B-	.	2g 2b-\	.	2E-\	-léj,	.	2.r	.	.	2G/	-léj,	.	2B-\	-léj,	.
8E-\L 8G 8B-	.	8g\L 8b-\L	.	8E-\	przy	.	.	.	.	8G/	przy	.	8B-\	przy	.
8E-\J 8G 8B-	.	8g\J 8b-\J	.	8E-\	od-	.	.	.	.	8G/	od-	.	8B-\	od-	.
=133	=133	=133	=133	=133	=133	=133	=133	=133	=133	=133	=133	=133	=133	=133	=133
*^	*	*	*	*	*	*	*	*	*	*	*	*	*	*	*
*xywh-202:449,1863,1996,359	*	*	*	*	*	*	*	*	*	*	*	*	*	*	*	*
*	*xywh-202:449,1863,1996,359	*	*	*	*	*	*	*	*	*	*	*	*	*	*	*
*	*	*	*xywh-202:449,1863,1996,359	*	*	*	*	*	*	*	*	*	*	*	*	*
2G\ 2B-	2E-\	.	8b-\L	.	2E-\	-gło-	.	4r	.	.	(4G\	-gło-	.	(4B-\	-gło-	.
.	.	.	8g\	.	.	.	.	.	.	.	.	.	.	.	.	.
.	.	.	8gg\	.	.	.	.	4r	.	.	4B-\)	.	.	4g\)	.	.
.	.	.	8b-\	.	.	.	.	.	.	.	.	.	.	.	.	.
!	!	!	!	!	!	!	!	!	!	!LO:DY:rj:a	!	!	!	!	!	!
8c/L	4E-\	.	8a-X\	.	8E-\	-sie	.	8A-X/	przy	p	8c\	-sie	.	8f\	-sie	.
8d/J	.	.	8ff\J	.	8E-\	tych	.	8A-/	od-	.	8d\	tych	.	8f\	tych	.
=134	=134	=134	=134	=134	=134	=134	=134	=134	=134	=134	=134	=134	=134	=134	=134	=134
2e-/	2E-\	.	8ee-\L	.	4E-\	trąb	.	2G/	-gło-	.	4e-\	trąb	.	(2e-\	trąb	.
.	.	.	8gg\	.	.	.	.	.	.	.	.	.	.	.	.	.
.	.	.	8ee-\	.	4E-\	od-	.	.	.	.	4e-\	od-	.	.	.	.
.	.	.	8b-\	.	.	.	.	.	.	.	.	.	.	.	.	.
!	!	!	!	!	!	!	!LO:DY:rj:a	!	!	!LO:DY:rj:a	!	!	!LO:DY:rj:a	!	!	!
8G/L 8B-	8E-\L	.	8g\	.	8E-\	-gło-	f	8G/	.	f	8e-\	-gło-	f	4B-\)	.	.
8G/J 8B-	8E-\J	.	8b-\J	.	8E-\	-sie	.	8G/	-sie	.	8e-\	-sie	.	.	.	.
*v	*v	*	*	*	*	*	*	*	*	*	*	*	*	*	*	*
=135	=135	=135	=135	=135	=135	=135	=135	=135	=135	=135	=135	=135	=135	=135	=135
2E-\ 2G 2B-	.	2ee-\	.	2E-\	trąb,	.	2G/	trąb,	.	2e-\	trąb,	.	4r	.	.
.	.	.	.	.	.	.	.	.	.	.	.	.	4r	.	.
!	!	!	!LO:DY:rj	!	!	!	!	!	!	!	!	!LO:DY:rj:a	!	!	!LO:DY:rj:a
8E-\L 8G 8B-	.	8g/L	p	4r	.	.	4r	.	.	8E-/	przez	p	8G/	przez	p
8E-\J 8G 8B-	.	8a-X/J	.	.	.	.	.	.	.	8F/	pa-	.	8A-X/	pa-	.
=136	=136	=136	=136	=136	=136	=136	=136	=136	=136	=136	=136	=136	=136	=136	=136
2E-\ 2G 2B-	.	2g/ 2b-	.	4r	.	.	4r	.	.	2.G/	-ro-	.	[2.B-\	-ro-	.
.	.	.	.	4r	.	.	4r	.	.	.	.	.	.	.	.
!	!	!	!	!	!	!LO:DY:rj:a	!	!	!LO:DY:rj:a	!	!	!	!	!	!
8E-\L 8G 8B-	.	8g/L 8b-	.	8E-\	przez	p	8B-\	przez	p	.	.	.	.	.	.
8E-\J 8G 8B-	.	8g/J 8b-	.	8E-\	pa-	.	8B-\	pa-	.	.	.	.	.	.	.
=137	=137	=137	=137	=137	=137	=137	=137	=137	=137	=137	=137	=137	=137	=137	=137
*	*	*^	*	*	*	*	*	*	*	*	*	*	*	*	*
*xywh-202:449,1863,1996,359	*	*	*	*	*	*	*	*	*	*	*	*	*	*	*	*
*	*	*xywh-202:449,1863,1996,359	*	*	*	*	*	*	*	*	*	*	*	*	*	*
*	*	*	*xywh-202:449,1863,1996,359	*	*	*	*	*	*	*	*	*	*	*	*	*
2E-\ 2G 2B-	.	8b-\L	8ryy	.	4E-\	-ro-	.	4B-\	-ro-	.	2G/	wy	.	4B-\]	.	.
.	.	8g\	8ryy	.	.	.	.	.	.	.	.	.	.	.	.	.
.	.	8gg\	8ryy	.	4E-\	-wy	.	4B-\	-wy	.	.	.	.	4g\	-wy	.
.	.	8b-\	8ryy	.	.	.	.	.	.	.	.	.	.	.	.	.
8D\L 8G 8d	.	8an\	4ff/	.	8D\	bło-	.	4r	.	.	8An/	bło-	.	8f\	bło-	.
!	!	!	!	!	!	!	!	!	!	!	!LO:SIC:v:s=8Bn/	!	!	!	!	!
8D\J 8G 8d	.	8bn\J	.	.	8D\	-nia	.	.	.	.	8B-/	-nia	.	8f\	-nia	.
*	*	*v	*v	*	*	*	*	*	*	*	*	*	*	*	*	*
=138	=138	=138	=138	=138	=138	=138	=138	=138	=138	=138	=138	=138	=138	=138	=138
!!linebreak:original
*xywh-202:461,2794,2008,482	*	*	*	*	*	*	*	*	*	*	*	*	*	*	*
*	*	*xywh-202:461,2794,2008,482	*	*	*	*	*	*	*	*	*	*	*	*	*
*	*	*	*	*xywh-202:476,2660,1945,209	*	*	*	*	*	*	*	*	*	*	*
*	*	*	*	*	*	*	*xywh-202:488,2525,1939,206	*	*	*	*	*	*	*	*
*	*	*	*	*	*	*	*	*	*	*xywh-202:506,2390,1921,191	*	*	*	*	*
*	*	*	*	*	*	*	*	*	*	*	*	*	*xywh-202:500,2222,1957,197	*	*
2C\ 2c	.	8cc\L	.	2C/	las	.	4r	.	.	2c\	las	.	2e-\	las	.
.	.	8ee-\	.	.	.	.	.	.	.	.	.	.	.	.	.
.	.	8cc\	.	.	.	.	4r	.	.	.	.	.	.	.	.
.	.	8g\	.	.	.	.	.	.	.	.	.	.	.	.	.
!	!	!	!	!	!	!LO:DY:rj:a	!	!	!LO:DY:rj:a	!	!	!LO:DY:rj:a	!	!	!
8C^\L 8E- 8G 8c	.	8e-^\	.	8C/	bło-	f	8E-/	bło-	f	8c\	bło-	f	4r	.	.
8C\J 8E- 8G 8c	.	8g\J	.	8C/	-nia	.	8E-/	-nia	.	8c\	-nia	.	.	.	.
=139	=139	=139	=139	=139	=139	=139	=139	=139	=139	=139	=139	=139	=139	=139	=139
2C\ 2E- 2G 2c	.	2cc\	.	2C/	las!	.	2E-/	las!	.	2c\	las!	.	4r	.	.
.	.	.	.	.	.	.	.	.	.	.	.	.	4r	.	.
!	!	!	!	!	!LO:MO:mod=Tur	!LO:DY:rj:a	!	!	!	!	!LO:MO:mod=Tur	!LO:DY:rj:a	!	!LO:MO:mod=Tur	!LO:DY:rj:a
8E-\L 8G	.	8g\L 8b-X	.	8E-\	Tur-	p	4r	.	.	8G/	Tur-	p	8B-\	Tur-	p
!	!	!	!	!	!LO:MO:mod=nie	!	!	!	!	!	!LO:MO:mod=nie	!	!	!LO:MO:mod=nie	!
8E-\J 8G	.	8g\J 8b-	.	8E-\	-nie	.	.	.	.	8G/	-nie	.	8B-\	-nie	.
=140	=140	=140	=140	=140	=140	=140	=140	=140	=140	=140	=140	=140	=140	=140	=140
2E-\ 2G 2B-	.	2g\ 2b-	.	2.E-\	przem-	.	2.r	.	.	2.G/	przem-	.	2.B-\	przem-	.
!	!	!	!LO:DY:rj	!	!	!	!	!	!	!	!	!	!	!	!
8E-\L 8G 8B-	.	8g\L 8b-	p	.	.	.	.	.	.	.	.	.	.	.	.
8E-\J 8G 8B-	.	8g\J 8b-	.	.	.	.	.	.	.	.	.	.	.	.	.
=141	=141	=141	=141	=141	=141	=141	=141	=141	=141	=141	=141	=141	=141	=141	=141
*^	*	*	*	*	*	*	*	*	*	*	*	*	*	*	*
*xywh-202:461,2794,2008,482	*	*	*	*	*	*	*	*	*	*	*	*	*	*	*	*
*	*xywh-202:461,2794,2008,482	*	*	*	*	*	*	*	*	*	*	*	*	*	*	*
*	*	*	*xywh-202:461,2794,2008,482	*	*	*	*	*	*	*	*	*	*	*	*	*
2E-\ 2G\ 2B-	2ryy	.	8b-\L	.	4E-\	-knie	.	4r	.	.	4G\	-knie	.	4B-\	-knie	.
.	.	.	8g\	.	.	.	.	.	.	.	.	.	.	.	.	.
.	.	.	8gg\	.	4E-\	za	.	4r	.	.	4B-X\	za	.	4g\	za	.
.	.	.	8b-\	.	.	.	.	.	.	.	.	.	.	.	.	.
8c/L	4E-\	.	8a-X\	.	4E-\	ten	.	8A-X/	za	.	8c\L	ten	.	4f\	ten	.
8d/J	.	.	8ff\J	.	.	.	.	8A-/	ten	.	8d\J	.	.	.	.	.
=142	=142	=142	=142	=142	=142	=142	=142	=142	=142	=142	=142	=142	=142	=142	=142	=142
2e-/	2E-\	.	8ee-\L	.	2E-\	zrąb	.	2G/	zrąb	.	2e-\	zrąb	.	(2e-\	zrąb	.
.	.	.	8gg\	.	.	.	.	.	.	.	.	.	.	.	.	.
.	.	.	8ee-\	.	.	.	.	.	.	.	.	.	.	.	.	.
.	.	.	8b-\	.	.	.	.	.	.	.	.	.	.	.	.	.
!	!	!	!	!	!	!	!LO:DY:rj:a	!	!	!LO:DY:rj:a	!	!	!LO:DY:rj:a	!	!	!
8G/L 8B-	8E-\L	.	8g\	.	8E-\	za	f	8G/	za	f	8e-\	za	f	8B-\)	.	.
8G/J 8B-	8E-\J	.	8b-\J	.	8E-\	ten	.	8G/	ten	.	8e-\	ten	.	8r	.	.
=143	=143	=143	=143	=143	=143	=143	=143	=143	=143	=143	=143	=143	=143	=143	=143	=143
2E-\ 2G\ 2B-	2ryy	.	2ee-\	f	2E-\	zrąb,	.	2G/	zrąb,	.	2e-\	zrąb,	.	4r	.	.
.	.	.	.	.	.	.	.	.	.	.	.	.	.	4r	.	.
!	!	!	!	!LO:DY:rj	!	!	!LO:DY:rj:a	!	!	!	!	!	!	!	!	!LO:DY:rj:a
8E-\L 8G\L 8B-	8ryy	.	8g/L	p	8E-\	ła-	p	4r	.	.	4r	.	.	8G/	ła-	p
8E-\J 8G\J 8B-	8ryy	.	8a-X/J	.	8E-\	-nia	.	.	.	.	.	.	.	8G/	-nia	.
*v	*v	*	*	*	*	*	*	*	*	*	*	*	*	*	*	*
=144	=144	=144	=144	=144	=144	=144	=144	=144	=144	=144	=144	=144	=144	=144	=144
!!pagebreak:original
*xywh-203:155,862,2044,437	*	*	*	*	*	*	*	*	*	*	*	*	*	*	*
*	*	*xywh-203:155,862,2044,437	*	*	*	*	*	*	*	*	*	*	*	*	*
*	*	*	*	*xywh-203:203,715,1936,215	*	*	*	*	*	*	*	*	*	*	*
*	*	*	*	*	*	*	*xywh-203:197,526,1966,233	*	*	*	*	*	*	*	*
*	*	*	*	*	*	*	*	*	*	*xywh-203:167,382,2014,209	*	*	*	*	*
*	*	*	*	*	*	*	*	*	*	*	*	*	*xywh-203:185,157,2035,296	*	*
2E-\ 2G 2B-	.	2g/ 2b-	.	2G\	wpław	.	2.r	.	.	4r	.	.	2B-\	wpław	.
.	.	.	.	.	.	.	.	.	.	4r	.	.	.	.	.
8E-\L 8G 8B-	.	8g/L 8b-	.	8E-\	ła-	.	.	.	.	8G/	ła-	.	8B-\	ła-	.
8E-\J 8G 8B-	.	8g/J 8b-	.	8E-\	-nia	.	.	.	.	8G/	-nia	.	8B-\	-nia	.
=145	=145	=145	=145	=145	=145	=145	=145	=145	=145	=145	=145	=145	=145	=145	=145
*	*	*^	*	*	*	*	*	*	*	*	*	*	*	*	*
*xywh-203:155,862,2044,437	*	*	*	*	*	*	*	*	*	*	*	*	*	*	*	*
*	*	*xywh-203:155,862,2044,437	*	*	*	*	*	*	*	*	*	*	*	*	*	*
*	*	*	*xywh-203:155,862,2044,437	*	*	*	*	*	*	*	*	*	*	*	*	*
!LO:SIC:v:s=2En\:n=1	!	!	!	!	!	!	!	!	!	!	!	!	!	!	!	!
2E-\ 2G 2B-	.	4ryy	8b-\L	.	4C/	wpław	.	4r	.	.	4G/	wpław	.	4B-\	wpław	.
.	.	.	8g\	.	.	.	.	.	.	.	.	.	.	.	.	.
.	.	4gg/	8gg\	.	4C/	nie	.	4G/	nie	.	4B-\	nie	.	4g\	nie	.
.	.	.	8b-\	.	.	.	.	.	.	.	.	.	.	.	.	.
8C\L 8c	.	8ff/L	8g\	.	8C/	zmy-	.	8G/	zmy-	.	8B-\	zmy-	.	8f\	zmy-	.
8C\J 8c	.	8een/J	8b-\J	.	8C/	-li	.	8G/	-li	.	8B-\	-li	.	8e\	-li	.
*	*	*v	*v	*	*	*	*	*	*	*	*	*	*	*	*	*
=146	=146	=146	=146	=146	=146	=146	=146	=146	=146	=146	=146	=146	=146	=146	=146
2F\ 2A-X 2c	.	8f\L 8gg	.	2F\	nas!	.	2F/	nas!	.	2A-X/	nas!	.	2f\	nas!	.
.	.	8een\	.	.	.	.	.	.	.	.	.	.	.	.	.
.	.	8ff\	.	.	.	.	.	.	.	.	.	.	.	.	.
.	.	8cc\	.	.	.	.	.	.	.	.	.	.	.	.	.
!	!	!	!	!	!	!LO:DY:rj:a	!	!	!LO:DY:rj:a	!	!	!LO:DY:rj:a	!	!	!
8F\L 8A- 8c	.	8a-X^\	.	8F\	da-	f	8A-X/	da-	f	8c\	da-	f	4r	.	.
8F\J 8A- 8c	.	8f\J	.	8F\	-léj	.	8A-/	-léj	.	8c\	-léj	.	.	.	.
=147	=147	=147	=147	=147	=147	=147	=147	=147	=147	=147	=147	=147	=147	=147	=147
!	!	!LO:SIC:v:s=8a-\L	!LO:DY:rj	!	!	!	!	!	!	!	!	!	!	!	!
2F\ 2A-X 2c	.	8a\L	f	2F\	wgłąb	.	2A-X/	wgłąb	.	2c\	wgłąb	.	4r	.	.
.	.	8f\	.	.	.	.	.	.	.	.	.	.	.	.	.
.	.	8a-X\	.	.	.	.	.	.	.	.	.	.	4r	.	.
.	.	8cc\	.	.	.	.	.	.	.	.	.	.	.	.	.
8F\L 8A- 8c	.	8een\	.	8F\	za-	.	4r	.	.	4r	.	.	8A-X/	da-	.
8F\J 8A- 8c	.	8ff\J	.	8F\	-ten	.	.	.	.	.	.	.	8A-/	-léj	.
=148	=148	=148	=148	=148	=148	=148	=148	=148	=148	=148	=148	=148	=148	=148	=148
!	!	!	!	!	!	!	!	!	!	!	!	!	!LO:TX:a:t=agitato.:i	!	!
!LO:SIC:v:s=2A-:n=2	!	!	!	!	!	!	!	!	!	!LO:SIC:v:s=2A-/	!	!	!LO:SIC:v:s=2A-/	!	!
2F\ 2A 2c	.	8a-X\L	.	2F\	zrąb	.	4r	.	.	2A/	wgłąb	.	2A/	wgłąb	.
.	.	8f\	.	.	.	.	.	.	.	.	.	.	.	.	.
.	.	8a-\	.	.	.	.	4r	.	.	.	.	.	.	.	.
.	.	8cc\	.	.	.	.	.	.	.	.	.	.	.	.	.
!LO:SIC:v:s=8A-:n=2	!	!	!	!	!	!	!	!	!	!	!	!	!	!	!
8F\L 8A 8c	.	8een\	.	4r	.	.	8F/	za	.	4r	.	.	8A-X/	za	.
!LO:SIC:v:s=8A-:n=2	!	!	!	!	!	!	!	!	!	!	!	!	!	!	!
8F\J 8A 8c	.	8ff\J	.	.	.	.	8F/	ten	.	.	.	.	8A-/	ten	.
=149	=149	=149	=149	=149	=149	=149	=149	=149	=149	=149	=149	=149	=149	=149	=149
!	!	!	!	!	!	!	!	!	!	!	!	!	!LO:SIC:v:s=(4A-\	!	!
2F\ 2A-X 2c	.	8a-X\L	.	4r	.	.	2F/	zrąb	.	2.r	.	.	(4A\	zrąb	.
.	.	8f\	.	.	.	.	.	.	.	.	.	.	.	.	.
.	.	8ff\	.	4r	.	.	.	.	.	.	.	.	4f\)	.	.
.	.	8a-\J	.	.	.	.	.	.	.	.	.	.	.	.	.
8CC-X/L 8C-X	.	8f\L 8ff	.	8C-X/	z dźwię-	.	8A-X/	z dźwię-	.	.	.	.	8f\	z dźwię-	.
8CC-/J 8C-	.	8f\J 8ee-X	.	8C-/	-kiem	.	8A-/	-kiem	.	.	.	.	8e-\	-kiem	.
=150	=150	=150	=150	=150	=150	=150	=150	=150	=150	=150	=150	=150	=150	=150	=150
!!linebreak:original
*xywh-203:134,1767,2014,494	*	*	*	*	*	*	*	*	*	*	*	*	*	*	*
*	*	*xywh-203:134,1767,2014,494	*	*	*	*	*	*	*	*	*	*	*	*	*
*	*	*	*	*xywh-203:173,1689,2029,203	*	*	*	*	*	*	*	*	*	*	*
*	*	*	*	*	*	*	*xywh-203:167,1530,1975,221	*	*	*	*	*	*	*	*
*	*	*	*	*	*	*	*	*	*	*xywh-203:176,1380,1969,197	*	*	*	*	*
*	*	*	*	*	*	*	*	*	*	*	*	*	*xywh-203:158,1197,2017,266	*	*
!	!	!	!LO:DY:rj	!	!	!	!LO:SIC:v:s=2A-\	!	!	!	!	!	!	!	!
16BBB-/LL	.	4f\ 4dd	f	2BB-/	trąb!	.	2A\	trąb!	.	2.r	.	.	2d\	trąb!	.
16BB-/	.	.	.	.	.	.	.	.	.	.	.	.	.	.	.
16BBB-/	.	.	.	.	.	.	.	.	.	.	.	.	.	.	.
16BB-/JJ	.	.	.	.	.	.	.	.	.	.	.	.	.	.	.
16BBB-/LL	.	4r	.	.	.	.	.	.	.	.	.	.	.	.	.
16BB-/	.	.	.	.	.	.	.	.	.	.	.	.	.	.	.
16BBB-/	.	.	.	.	.	.	.	.	.	.	.	.	.	.	.
16BB-/JJ	.	.	.	.	.	.	.	.	.	.	.	.	.	.	.
*	*	*8va	*	*	*	*	*	*	*	*	*	*	*	*	*
!	!	!LO:TUP:a	!	!	!	!	!	!	!	!	!	!	!	!	!
16BBB-/LL	.	20ddd\LL	.	4r	.	.	4r	.	.	.	.	.	4r	.	.
.	.	20eee-\	.	.	.	.	.	.	.	.	.	.	.	.	.
16BB-/	.	.	.	.	.	.	.	.	.	.	.	.	.	.	.
.	.	20eeen\	.	.	.	.	.	.	.	.	.	.	.	.	.
16BBB-/	.	.	.	.	.	.	.	.	.	.	.	.	.	.	.
.	.	20fff\	.	.	.	.	.	.	.	.	.	.	.	.	.
16BB-/JJ	.	.	.	.	.	.	.	.	.	.	.	.	.	.	.
.	.	20ggg\JJ	.	.	.	.	.	.	.	.	.	.	.	.	.
=151	=151	=151	=151	=151	=151	=151	=151	=151	=151	=151	=151	=151	=151	=151	=151
16BBB-/LL	.	4aaa-X\	fp	2.r	.	.	2.r	.	.	2.r	.	.	2.r	.	.
16BB-/	.	.	.	.	.	.	.	.	.	.	.	.	.	.	.
16BBB-/	.	.	.	.	.	.	.	.	.	.	.	.	.	.	.
16BB-/JJ	.	.	.	.	.	.	.	.	.	.	.	.	.	.	.
16BBB-/LL	.	4aa-X\ 4fff	.	.	.	.	.	.	.	.	.	.	.	.	.
16BB-/	.	.	.	.	.	.	.	.	.	.	.	.	.	.	.
16BBB-/	.	.	.	.	.	.	.	.	.	.	.	.	.	.	.
16BB-/JJ	.	.	.	.	.	.	.	.	.	.	.	.	.	.	.
16BBB-/LL	.	4bb-\ 4ggg	.	.	.	.	.	.	.	.	.	.	.	.	.
16BB-/	.	.	.	.	.	.	.	.	.	.	.	.	.	.	.
16BBB-/	.	.	.	.	.	.	.	.	.	.	.	.	.	.	.
16BB-/JJ	.	.	.	.	.	.	.	.	.	.	.	.	.	.	.
=152	=152	=152	=152	=152	=152	=152	=152	=152	=152	=152	=152	=152	=152	=152	=152
16BBB-/LL	.	4gg\ 4eee-	.	2.r	.	.	2.r	.	.	2.r	.	.	2.r	.	.
16BB-/	.	.	.	.	.	.	.	.	.	.	.	.	.	.	.
16BBB-/	.	.	.	.	.	.	.	.	.	.	.	.	.	.	.
16BB-/JJ	.	.	.	.	.	.	.	.	.	.	.	.	.	.	.
16BBB-/LL	.	4aa-X\ 4fff	.	.	.	.	.	.	.	.	.	.	.	.	.
16BB-/	.	.	.	.	.	.	.	.	.	.	.	.	.	.	.
16BBB-/	.	.	.	.	.	.	.	.	.	.	.	.	.	.	.
16BB-/JJ	.	.	.	.	.	.	.	.	.	.	.	.	.	.	.
16BBB-/LL	.	4ff\ 4ddd	.	.	.	.	.	.	.	.	.	.	.	.	.
16BB-/	.	.	.	.	.	.	.	.	.	.	.	.	.	.	.
16BBB-/	.	.	.	.	.	.	.	.	.	.	.	.	.	.	.
16BB-/JJ	.	.	.	.	.	.	.	.	.	.	.	.	.	.	.
*	*	*X8va	*	*	*	*	*	*	*	*	*	*	*	*	*
=153	=153	=153	=153	=153	=153	=153	=153	=153	=153	=153	=153	=153	=153	=153	=153
!	!	!LO:TX:a:t=loco.:i	!	!	!	!	!	!	!	!	!	!	!	!	!
16BBB-/LL	.	4gg\ 4eee-	.	2.r	.	.	2.r	.	.	2.r	.	.	4r	.	.
16BB-/	.	.	.	.	.	.	.	.	.	.	.	.	.	.	.
16BBB-/	.	.	.	.	.	.	.	.	.	.	.	.	.	.	.
16BB-/JJ	.	.	.	.	.	.	.	.	.	.	.	.	.	.	.
16BBB-/LL	.	4ee-\ 4ccc	.	.	.	.	.	.	.	.	.	.	4r	.	.
16BB-/	.	.	.	.	.	.	.	.	.	.	.	.	.	.	.
16BBB-/	.	.	.	.	.	.	.	.	.	.	.	.	.	.	.
16BB-/JJ	.	.	.	.	.	.	.	.	.	.	.	.	.	.	.
!	!	!	!	!	!	!	!	!	!	!	!	!	!LO:TX:a:t=BORUS.:i	!	!
16BBB-/LL	.	4ff\ 4ddd	.	.	.	.	.	.	.	.	.	.	8B-\	Patrz-	.
16BB-/	.	.	.	.	.	.	.	.	.	.	.	.	.	.	.
16BBB-/	.	.	.	.	.	.	.	.	.	.	.	.	8B-\	-cie	.
16BB-/JJ	.	.	.	.	.	.	.	.	.	.	.	.	.	.	.
=154	=154	=154	=154	=154	=154	=154	=154	=154	=154	=154	=154	=154	=154	=154	=154
!!linebreak:original
*xywh-203:134,2761,2005,503	*	*	*	*	*	*	*	*	*	*	*	*	*	*	*
*	*	*xywh-203:134,2761,2005,503	*	*	*	*	*	*	*	*	*	*	*	*	*
*	*	*	*	*xywh-203:161,2639,1960,176	*	*	*	*	*	*	*	*	*	*	*
*	*	*	*	*	*	*	*xywh-203:170,2516,1951,170	*	*	*	*	*	*	*	*
*	*	*	*	*	*	*	*	*	*	*xywh-203:155,2369,1996,173	*	*	*	*	*
*	*	*	*	*	*	*	*	*	*	*	*	*	*xywh-203:185,2189,1939,215	*	*
16BBB-/LL	.	4dd\ 4bb-	.	2.r	.	.	2.r	.	.	2.r	.	.	4B-\	tam!	.
16BB-/	.	.	.	.	.	.	.	.	.	.	.	.	.	.	.
16BBB-/	.	.	.	.	.	.	.	.	.	.	.	.	.	.	.
16BB-/JJ	.	.	.	.	.	.	.	.	.	.	.	.	.	.	.
16BBB-/LL	.	4ee-\ 4ccc	.	.	.	.	.	.	.	.	.	.	4B-\	wszak	.
16BB-/	.	.	.	.	.	.	.	.	.	.	.	.	.	.	.
16BBB-/	.	.	.	.	.	.	.	.	.	.	.	.	.	.	.
16BB-/JJ	.	.	.	.	.	.	.	.	.	.	.	.	.	.	.
16BBB-/LL	.	4cc\ 4aa-X	.	.	.	.	.	.	.	.	.	.	8B-\	to	.
16BB-/	.	.	.	.	.	.	.	.	.	.	.	.	.	.	.
16BBB-/	.	.	.	.	.	.	.	.	.	.	.	.	8B-\	wróg	.
16BB-/JJ	.	.	.	.	.	.	.	.	.	.	.	.	.	.	.
=155	=155	=155	=155	=155	=155	=155	=155	=155	=155	=155	=155	=155	=155	=155	=155
16BBB-/LL	.	4dd\ 4bb-	.	2.r	.	.	2.r	.	.	2.r	.	.	[2.B-\	nasz?	.
16BB-/	.	.	.	.	.	.	.	.	.	.	.	.	.	.	.
16BBB-/	.	.	.	.	.	.	.	.	.	.	.	.	.	.	.
16BB-/JJ	.	.	.	.	.	.	.	.	.	.	.	.	.	.	.
16BBB-/LL	.	4b-\ 4gg	.	.	.	.	.	.	.	.	.	.	.	.	.
16BB-/	.	.	.	.	.	.	.	.	.	.	.	.	.	.	.
16BBB-/	.	.	.	.	.	.	.	.	.	.	.	.	.	.	.
16BB-/JJ	.	.	.	.	.	.	.	.	.	.	.	.	.	.	.
16BBB-/LL	.	4cc\ 4aa-X	.	.	.	.	.	.	.	.	.	.	.	.	.
16BB-/	.	.	.	.	.	.	.	.	.	.	.	.	.	.	.
16BBB-/	.	.	.	.	.	.	.	.	.	.	.	.	.	.	.
16BB-/JJ	.	.	.	.	.	.	.	.	.	.	.	.	.	.	.
=156	=156	=156	=156	=156	=156	=156	=156	=156	=156	=156	=156	=156	=156	=156	=156
16BBB-/LL	.	4a-X\ 4ff	.	2.r	.	.	2.r	.	.	2.r	.	.	4B-\]	.	.
16BB-/	.	.	.	.	.	.	.	.	.	.	.	.	.	.	.
16BBB-/	.	.	.	.	.	.	.	.	.	.	.	.	.	.	.
16BB-/JJ	.	.	.	.	.	.	.	.	.	.	.	.	.	.	.
16BBB-/LL	.	4b-\ 4gg	.	.	.	.	.	.	.	.	.	.	4r	.	.
16BB-/	.	.	.	.	.	.	.	.	.	.	.	.	.	.	.
16BBB-/	.	.	.	.	.	.	.	.	.	.	.	.	.	.	.
16BB-/JJ	.	.	.	.	.	.	.	.	.	.	.	.	.	.	.
16BBB-/LL	.	4g\ 4ee-	.	.	.	.	.	.	.	.	.	.	4r	.	.
16BB-/	.	.	.	.	.	.	.	.	.	.	.	.	.	.	.
16BBB-/	.	.	.	.	.	.	.	.	.	.	.	.	.	.	.
16BB-/JJ	.	.	.	.	.	.	.	.	.	.	.	.	.	.	.
=157	=157	=157	=157	=157	=157	=157	=157	=157	=157	=157	=157	=157	=157	=157	=157
16BBB-/LL	.	2f\ 2an 2cc 2ff	.	2.r	.	.	2.r	.	.	2.r	.	.	2.r	.	.
!	!	!LO:TX:b:t=rall:i	!	!	!	!	!	!	!	!	!	!	!	!	!
16BB-/	.	.	.	.	.	.	.	.	.	.	.	.	.	.	.
16BBB-/	.	.	.	.	.	.	.	.	.	.	.	.	.	.	.
16BB-/JJ	.	.	.	.	.	.	.	.	.	.	.	.	.	.	.
16BBB-/LL	.	.	.	.	.	.	.	.	.	.	.	.	.	.	.
16BB-/	.	.	.	.	.	.	.	.	.	.	.	.	.	.	.
16BBB-/	.	.	.	.	.	.	.	.	.	.	.	.	.	.	.
16BB-/JJ	.	.	.	.	.	.	.	.	.	.	.	.	.	.	.
!	!	!	!LO:DY:rj	!	!	!	!	!	!	!	!	!	!	!	!
16BBB-/LL	.	8ee-\L	p	.	.	.	.	.	.	.	.	.	.	.	.
16BB-/	.	.	.	.	.	.	.	.	.	.	.	.	.	.	.
16BBB-/	.	8dd\J	.	.	.	.	.	.	.	.	.	.	.	.	.
16BB-/JJ	.	.	.	.	.	.	.	.	.	.	.	.	.	.	.
=158	=158	=158	=158	=158	=158	=158	=158	=158	=158	=158	=158	=158	=158	=158	=158
2.BBB-;/ 2.BB-	.	2.f;/ 2.a-X 2.b- 2.dd	.	2.r;	.	.	2.r;	.	.	2.r;	.	.	2.r;	.	.
==	==	==	==	==	==	==	==	==	==	==	==	==	==	==	==
*-	*-	*-	*-	*-	*-	*-	*-	*-	*-	*-	*-	*-	*-	*-	*-
!!!system-decoration: [(s1,s2,s3,s4)]{(s5,s6)}
!!!RDF**dynam: < = cres
!!!RDF**kern: > = above
!!!RDF**kern: < = below
!!!ENC: Marta Opryszak
!!!END: 2022-03-02
!!!ENC: Krzysztof Stępień
!!!END: 2022-03-02
!!!ENC-iiif: Lidia Bialucha
!!!END-iiif: 2022-08-31
!!!YEC: Copyright 2022 Narodowy Instytut Fryderyka Chopina (https://polishscores.org)
!!!YEM: License CC-BY-4.0 (https://creativecommons.org/licenses/by/4.0)
